/* XPM */
static char *_8978f95ff294f6895d9880a3e5c6d0cngWRUaISnOkd4mZT[] = {
/* columns rows colors chars-per-pixel */
"650 650 26 1 ",
"  c #5539CD",
". c #5A41CE",
"X c #644FCF",
"o c #6653D0",
"O c #7869D3",
"+ c #7C6FD4",
"@ c #968DDA",
"# c #A29BDD",
"$ c #A49CDE",
"% c #B1ABE2",
"& c #B2ADE2",
"* c #B5B0E3",
"= c #BAB5E5",
"- c #BCB8E6",
"; c #C9C5EA",
": c #CBC8EB",
"> c #D6D4EF",
", c #DCDAF1",
"< c #DFDDF2",
"1 c #E3E1F4",
"2 c #E4E2F4",
"3 c #E9E8F6",
"4 c #EDECF8",
"5 c #F4F4FA",
"6 c #FAF9FD",
"7 c white",
/* pixels */
"                                                                                                                                                                                                                                                                                                                                                                                                                                                                                                                                                                                                                                                                          ",
"                                                                                                                                                                                                                                                                                                                                                                                                                                                                                                                                                                                                                                                                          ",
"                                                                                                                                                                                                                                                                                                                                                                                                                                                                                                                                                                                                                                                                          ",
"                                                                                                                                                                                                                                                                                                                                                                                                                                                                                                                                                                                                                                                                          ",
"                                                                                                                                                                                                                                                                                                                                                                                                                                                                                                                                                                                                                                                                          ",
"                                                                                                                                                                                                                                                                                                                                                                                                                                                                                                                                                                                                                                                                          ",
"                                                                                                                                                                                                                                                                                                                                                                                                                                                                                                                                                                                                                                                                          ",
"                                                                                                                                                                                                                                                                                                                                                                                                                                                                                                                                                                                                                                                                          ",
"                                                                                                                                                                                                                                                                                                                                                                                                                                                                                                                                                                                                                                                                          ",
"                                                                                                                                                                                                                                                                                                                                                                                                                                                                                                                                                                                                                                                                          ",
"                                                                                                                                                                                                                                                                                                                                                                                                                                                                                                                                                                                                                                                                          ",
"                                                                                                                                                                                                                                                                                                                                                                                                                                                                                                                                                                                                                                                                          ",
"                                                                                                                                                                                                                                                                                                                                                                                                                                                                                                                                                                                                                                                                          ",
"                                                                                                                                                                                                                                                                                                                                                                                                                                                                                                                                                                                                                                                                          ",
"                                                                                                                                                                                                                                                                                                                                                                                                                                                                                                                                                                                                                                                                          ",
"                                                                                                                                                                                                                                                                                                                                                                                                                                                                                                                                                                                                                                                                          ",
"                                                                                                                                                                                                                                                                                                                                                                                                                                                                                                                                                                                                                                                                          ",
"                                                                                                                                                                                                                                                                                                                                                                                                                                                                                                                                                                                                                                                                          ",
"                                                                                                                                                                                                                                                                                                                                                                                                                                                                                                                                                                                                                                                                          ",
"                                                                                                                                                                                                                                                                                                                                                                                                                                                                                                                                                                                                                                                                          ",
"                                                                                                                                                                                                                                                                                                                                                                                                                                                                                                                                                                                                                                                                          ",
"                                                                                                                                                                                                                                                                                                                                                                                                                                                                                                                                                                                                                                                                          ",
"                                                                                                                                                                                                                                                                                                                                                                                                                                                                                                                                                                                                                                                                          ",
"                                                                                                                                                                                                                                                                                                                                                                                                                                                                                                                                                                                                                                                                          ",
"                                                                                                                                                                                                                                                                                                                                                                                                                                                                                                                                                                                                                                                                          ",
"                                                                                                                                                                                                                                                                                                                                                                                                                                                                                                                                                                                                                                                                          ",
"                                                                                                                                                                                                                                                                                                                                                                                                                                                                                                                                                                                                                                                                          ",
"                                                                                                                                                                                                                                                                                                                                                                                                                                                                                                                                                                                                                                                                          ",
"                                                                                                                                                                                                                                                                                                                                                                                                                                                                                                                                                                                                                                                                          ",
"                                                                                                                                                                                                                                                                                                                                                                                                                                                                                                                                                                                                                                                                          ",
"                                                                                                                                                                                                                                                                                                                                                                                                                                                                                                                                                                                                                                                                          ",
"                                                                                                                                                                                                                                                                                                                                                                                                                                                                                                                                                                                                                                                                          ",
"                                                                                                                                                                                                                                                                                                                                                                                                                                                                                                                                                                                                                                                                          ",
"                                                                                                                                                                                                                                                                                                                                                                                                                                                                                                                                                                                                                                                                          ",
"                                                                                                                                                                                                                                                                                                                                                                                                                                                                                                                                                                                                                                                                          ",
"                                                                                                                                                                                                                                                                                                                                                                                                                                                                                                                                                                                                                                                                          ",
"                                                                                                                                                                                                                                                                                                                                                                                                                                                                                                                                                                                                                                                                          ",
"                                                                                                                                                                                                                                                                                                                                                                                                                                                                                                                                                                                                                                                                          ",
"                                                                                                                                                                                                                                                                                                                                                                                                                                                                                                                                                                                                                                                                          ",
"                                                                                                                                                                                                                                                                                                                                                                                                                                                                                                                                                                                                                                                                          ",
"                                                                                                                                                                                                                                                                                                                                                                                                                                                                                                                                                                                                                                                                          ",
"                                                                                                                                                                                                                                                                                                                                                                                                                                                                                                                                                                                                                                                                          ",
"                                                                                                                                                                                                                                                                                                                                                                                                                                                                                                                                                                                                                                                                          ",
"                                                                                                                                                                                                                                                                                                                                                                                                                                                                                                                                                                                                                                                                          ",
"                                                                                                                                                                                                                                                                                                                                                                                                                                                                                                                                                                                                                                                                          ",
"                                                                                                                                                                                                                                                                                                                                                                                                                                                                                                                                                                                                                                                                          ",
"                                                                                                                                                                                                                                                                                                                                                                                                                                                                                                                                                                                                                                                                          ",
"                                                                                                                                                                                                                                                                                                                                                                                                                                                                                                                                                                                                                                                                          ",
"                                                                                                                                                                                                                                                                                                                                                                                                                                                                                                                                                                                                                                                                          ",
"                                                                                                                                                                                                                                                                                                                                                                                                                                                                                                                                                                                                                                                                          ",
"                                                                                                                                                                                                                                                                                                                                                                                                                                                                                                                                                                                                                                                                          ",
"                                                                                                                                                                                                                                                                                                                                                                                                                                                                                                                                                                                                                                                                          ",
"                                                                                                                                                                                                                                                                                                                                                                                                                                                                                                                                                                                                                                                                          ",
"                                                                                                                                                                                                                                                                                                                                                                                                                                                                                                                                                                                                                                                                          ",
"                                                                                                                                                                                                                                                                                                                                                                                                                                                                                                                                                                                                                                                                          ",
"                                                                                                                                                                                                                                                                                                                                                                                                                                                                                                                                                                                                                                                                          ",
"                                                                                                                                                                                                                                                                                                                                                                                                                                                                                                                                                                                                                                                                          ",
"                                                                                                                                                                                                                                                                                                                                                                                                                                                                                                                                                                                                                                                                          ",
"                                                                                                                                                                                                                                                                                                                                                                                                                                                                                                                                                                                                                                                                          ",
"                                                                                                                                                                                                                                                                                                                                                                                                                                                                                                                                                                                                                                                                          ",
"                                                                                                                                                                                                                                                                                                                                                                                                                                                                                                                                                                                                                                                                          ",
"                                                                                                                                                                                                                                                                                                                                                                                                                                                                                                                                                                                                                                                                          ",
"                                                                                                                                                                                                                                                                                                                                                                                                                                                                                                                                                                                                                                                                          ",
"                                                                                                                                                                                                                                                                                                                                                                                                                                                                                                                                                                                                                                                                          ",
"                                                                                                                                                                                                                                                                                                                                                                                                                                                                                                                                                                                                                                                                          ",
"                                                                                                                                                                                                                                                                                                                                                                                                                                                                                                                                                                                                                                                                          ",
"                                                                                                                                                                                                                                                                                                                                                                                                                                                                                                                                                                                                                                                                          ",
"                                                                                                                                                                                                                                                                                                                                                                                                                                                                                                                                                                                                                                                                          ",
"                                                                                                                                                                                                                                                                                                                                                                                                                                                                                                                                                                                                                                                                          ",
"                                                                                                                                                                                                                                                                                                                             o$=;>146641>;=$o                                                                                                                                                                                                                                                                                                                             ",
"                                                                                                                                                                                                                                                                                                                          O*<7777777777777777<*O                                                                                                                                                                                                                                                                                                                          ",
"                                                                                                                                                                                                                                                                                                                       X-377777777777777777777773-X                                                                                                                                                                                                                                                                                                                       ",
"                                                                                                                                                                                                                                                                                                                     .&5777777777777777777777777775&.                                                                                                                                                                                                                                                                                                                     ",
"                                                                                                                                                                                                                                                                                                                    #47777777777777777777777777777774#                                                                                                                                                                                                                                                                                                                    ",
"                                                                                                                                                                                                                                                                                                                  +277777777777777777777777777777777772+                                                                                                                                                                                                                                                                                                                  ",
"                                                                                                                                                                                                                                                                                                                 @57777777777777777777777777777777777775@                                                                                                                                                                                                                                                                                                                 ",
"                                                                                                                                                                                                                                                                                                                %7777777777777777777777777777777777777777%                                                                                                                                                                                                                                                                                                                ",
"                                                                                                                                                                                                                                                                                                              .:777777777777777777777777777777777777777777:.                                                                                                                                                                                                                                                                                                              ",
"                                                                                                                                                                                                                                                                                                             .,77777777777777777777777777777777777777777777,.                                                                                                                                                                                                                                                                                                             ",
"                                                                                                                                                                                                                                                                                                             :7777777777777777777777777777777777777777777777:                                                                                                                                                                                                                                                                                                             ",
"                                                                                                                                                                                                                                                                                                            %777777777777777777777777777777777777777777777777%                                                                                                                                                                                                                                                                                                            ",
"                                                                                                                                                                                                                                                                                                           @77777777777777777777777777777777777777777777777777@                                                                                                                                                                                                                                                                                                           ",
"                                                                                                                                                                                                                                                                                                          +5777777777777777777777777777777777777777777777777775+                                                                                                                                                                                                                                                                                                          ",
"                                                                                                                                                                                                                                                                                                          277777777777777777777777777777777777777777777777777772                                                                                                                                                                                                                                                                                                          ",
"                                                                                                                                                                                                                                                                                                         #777777777777777777777777777777777777777777777777777777#                                                                                                                                                                                                                                                                                                         ",
"                                                                                                                                                                                                                                                                                                        .47777777777777777777777777777777777777777777777777777774.                                                                                                                                                                                                                                                                                                        ",
"                                                                                                                                                                                                                                                                                                        &77777777777777777777777777777777777777777777777777777777&                                                                                                                                                                                                                                                                                                        ",
"                                                                                                                                                                                                                                                                                                       X5777777777777777777777777777777777777777777777777777777775X                                                                                                                                                                                                                                                                                                       ",
"                                                                                                                                                                                                                                                                                                       -7777777777777777777777777777777777777777777777777777777777-                                                                                                                                                                                                                                                                                                       ",
"                                                                                                                                                                                                                                                                                                       377777777777777777777777777777777777777777777777777777777773                                                                                                                                                                                                                                                                                                       ",
"                                                                                                                                                                                                                                                                                                      O777777777777777777777777777777777777777777777777777777777777O                                                                                                                                                                                                                                                                                                      ",
"                                                                                                                                                                                                                                                                                                      *777777777777777777777777777777777777777777777777777777777777*                                                                                                                                                                                                                                                                                                      ",
"                                                                                                                                                                                                                                                                                                      <777777777777777777777777777777777777777777777777777777777777<                                                                                                                                                                                                                                                                                                      ",
"                                                                                                                                                                                                                                                                                                     o77777777777777777777777777777777777777777777777777777777777777o                                                                                                                                                                                                                                                                                                     ",
"                                                                                                                                                                                                                                                                                                     $77777777777777777777777777777777777777777777777777777777777777$                                                                                                                                                                                                                                                                                                     ",
"                                                                                                                                                                                                                                                                                                     =77777777777777777777777777777777777777777777777777777777777777=                                                                                                                                                                                                                                                                                                     ",
"                                                                                                                                                                                                                                                                                                     ;77777777777777777777777777777777777777777777777777777777777777;                                                                                                                                                                                                                                                                                                     ",
"                                                                                                                                                                                                                                                                                                     >77777777777777777777777777777777777777777777777777777777777777>                                                                                                                                                                                                                                                                                                     ",
"                                                                                                                                                                                                                                                                                                     1777777777777777777777777777777777777777777777777777777777777771                                                                                                                                                                                                                                                                                                     ",
"                                                                                                                                                                                                                                                                                                     4777777777777777777777777777777777777777777777777777777777777774                                                                                                                                                                                                                                                                                                     ",
"                                                                                                                                                                                                                                                                                                     6777777777777777777777777777777777777777777777777777777777777776                                                                                                                                                                                                                                                                                                     ",
"                                                                                                                                                                                                                                                                                                     7777777777777777777777777777777777777777777777777777777777777777                                                                                                                                                                                                                                                                                                     ",
"                                                                                                                                                                                                                                                                                                     7777777777777777777777777777777777777777777777777777777777777777                                                                                                                                                                                                                                                                                                     ",
"                                                                                                                                                                                                                                                                                                     7777777777777777777777777777777777777777777777777777777777777777                                                                                                                                                                                                                                                                                                     ",
"                                                                                                                                                                                                                                                                                                     7777777777777777777777777777777777777777777777777777777777777777                                                                                                                                                                                                                                                                                                     ",
"                                                                                                                                                                                                                                                                                                     7777777777777777777777777777777777777777777777777777777777777777                                                                                                                                                                                                                                                                                                     ",
"                                                                                                                                                                                                                                                                                                     7777777777777777777777777777777777777777777777777777777777777777                                                                                                                                                                                                                                                                                                     ",
"                                                                                                                                                                                                                                                                                                     7777777777777777777777777777777777777777777777777777777777777777                                                                                                                                                                                                                                                                                                     ",
"                                                                                                                                                                                                                                                                                                     7777777777777777777777777777777777777777777777777777777777777777                                                                                                                                                                                                                                                                                                     ",
"                                                                                                                                                                                                                                                                                                     7777777777777777777777777777777777777777777777777777777777777777                                                                                                                                                                                                                                                                                                     ",
"                                                                                                                                                                                                                                                                                                     7777777777777777777777777777777777777777777777777777777777777777                                                                                                                                                                                                                                                                                                     ",
"                                                                                                                                                                                                                                                                                                     7777777777777777777777777777777777777777777777777777777777777777                                                                                                                                                                                                                                                                                                     ",
"                                                                                                                                                                                                                                                                                                     7777777777777777777777777777777777777777777777777777777777777777                                                                                                                                                                                                                                                                                                     ",
"                                                                                                                                                                                                                                                                                                     7777777777777777777777777777777777777777777777777777777777777777                                                                                                                                                                                                                                                                                                     ",
"                                                                                                                                                                                                                                                                                                     7777777777777777777777777777777777777777777777777777777777777777                                                                                                                                                                                                                                                                                                     ",
"                                                                                                                                                                                                                                                                                                     7777777777777777777777777777777777777777777777777777777777777777                                                                                                                                                                                                                                                                                                     ",
"                                                                                                                                                                                                                                                                                                     7777777777777777777777777777777777777777777777777777777777777777                                                                                                                                                                                                                                                                                                     ",
"                                                                                                                                                                                                                                                                                                     7777777777777777777777777777777777777777777777777777777777777777                                                                                                                                                                                                                                                                                                     ",
"                                                                                                                                                                                                                                                                                                     7777777777777777777777777777777777777777777777777777777777777777                                                                                                                                                                                                                                                                                                     ",
"                                                                                                                                                                                                                                                                                                     7777777777777777777777777777777777777777777777777777777777777777                                                                                                                                                                                                                                                                                                     ",
"                                                                                                                                                                                                                                                                                                     7777777777777777777777777777777777777777777777777777777777777777                                                                                                                                                                                                                                                                                                     ",
"                                                                                                                                                                                                                                                                                                     7777777777777777777777777777777777777777777777777777777777777777                                                                                                                                                                                                                                                                                                     ",
"                                                                                                                                                                                                                                                                                                     7777777777777777777777777777777777777777777777777777777777777777                                                                                                                                                                                                                                                                                                     ",
"                                                                                                                                                                                                                                                                                                     7777777777777777777777777777777777777777777777777777777777777777                                                                                                                                                                                                                                                                                                     ",
"                                                                                                                                                                                                                                                                                                     7777777777777777777777777777777777777777777777777777777777777777                                                                                                                                                                                                                                                                                                     ",
"                                                                                                                                                                                                                                                                                                     7777777777777777777777777777777777777777777777777777777777777777                                                                                                                                                                                                                                                                                                     ",
"                                                                                                                                                                                                                                                                                                     7777777777777777777777777777777777777777777777777777777777777777                                                                                                                                                                                                                                                                                                     ",
"                                                                                                                                                                                                                                                                                                     7777777777777777777777777777777777777777777777777777777777777777                                                                                                                                                                                                                                                                                                     ",
"                                                                                                                                                                                                                                                                                                     7777777777777777777777777777777777777777777777777777777777777777                                                                                                                                                                                                                                                                                                     ",
"                                                                                                                                                                                                                                                                                                     7777777777777777777777777777777777777777777777777777777777777777                                                                                                                                                                                                                                                                                                     ",
"                                                                                                                                                                                                                                                                                                     7777777777777777777777777777777777777777777777777777777777777777                                                                                                                                                                                                                                                                                                     ",
"                                                                                                                                                                                                                                                                                                     7777777777777777777777777777777777777777777777777777777777777777                                                                                                                                                                                                                                                                                                     ",
"                                                                                                                                                                                                                                                                                                     7777777777777777777777777777777777777777777777777777777777777777                                                                                                                                                                                                                                                                                                     ",
"                                                                                                                                                                                                                                                                                                     7777777777777777777777777777777777777777777777777777777777777777                                                                                                                                                                                                                                                                                                     ",
"                                                                                                                                                                                                                                                                                                     7777777777777777777777777777777777777777777777777777777777777777                                                                                                                                                                                                                                                                                                     ",
"                                                                                                                                                                                                                                                                                                     7777777777777777777777777777777777777777777777777777777777777777                                                                                                                                                                                                                                                                                                     ",
"                                                                                                                                                                                                                                                                                                     7777777777777777777777777777777777777777777777777777777777777777                                                                                                                                                                                                                                                                                                     ",
"                                                                                                                                                                                                                                                                                                     7777777777777777777777777777777777777777777777777777777777777777                                                                                                                                                                                                                                                                                                     ",
"                                                                                                                                                                                                                                                                                                     7777777777777777777777777777777777777777777777777777777777777777                                                                                                                                                                                                                                                                                                     ",
"                                                                                                                                                                                                                                                                                                     7777777777777777777777777777777777777777777777777777777777777777                                                                                                                                                                                                                                                                                                     ",
"                                                                                                                                                                                                                                                                                                     7777777777777777777777777777777777777777777777777777777777777777                                                                                                                                                                                                                                                                                                     ",
"                                                                                                                                                                                                                                                                                                     7777777777777777777777777777777777777777777777777777777777777777                                                                                                                                                                                                                                                                                                     ",
"                                                                                                                                                                                                                                                                                                     7777777777777777777777777777777777777777777777777777777777777777                                                                                                                                                                                                                                                                                                     ",
"                                                                                                                                                                                                                                                                                                     7777777777777777777777777777777777777777777777777777777777777777                                                                                                                                                                                                                                                                                                     ",
"                                                                                                                                                                                                                                                                                                     7777777777777777777777777777777777777777777777777777777777777777                                                                                                                                                                                                                                                                                                     ",
"                                                                                                                                                                                                                                                                                                     7777777777777777777777777777777777777777777777777777777777777777                                                                                                                                                                                                                                                                                                     ",
"                                                                                                                                                                                                                                                                                                     7777777777777777777777777777777777777777777777777777777777777777                                                                                                                                                                                                                                                                                                     ",
"                                                                                                                                                                                                                                                                                                     7777777777777777777777777777777777777777777777777777777777777777                                                                                                                                                                                                                                                                                                     ",
"                                                                                                                                                                                                                                                                                                     7777777777777777777777777777777777777777777777777777777777777777                                                                                                                                                                                                                                                                                                     ",
"                                                                                                                                                                                                                             o$=;>146641>;=$o                                                        7777777777777777777777777777777777777777777777777777777777777777                                                                                                                                                                                                                                                                                                     ",
"                                                                                                                                                                                                                          O*<7777777777777777<*O                                                     7777777777777777777777777777777777777777777777777777777777777777                                                                                                                                                                                                                                                                                                     ",
"                                                                                                                                                                                                                       X-377777777777777777777773-X                                                  7777777777777777777777777777777777777777777777777777777777777777                                                                                                                                                                                                                                                                                                     ",
"                                                                                                                                                                                                                     .&5777777777777777777777777775&.                                                7777777777777777777777777777777777777777777777777777777777777777                                                                                                                                                                                                                                                                                                     ",
"                                                                                                                                                                                                                    #47777777777777777777777777777774#                                               7777777777777777777777777777777777777777777777777777777777777777                                                                                                                                                                                                                                                                                                     ",
"                                                                                                                                                                                                                  +277777777777777777777777777777777772+                                             7777777777777777777777777777777777777777777777777777777777777777                                                                                                                                                                                                                                                                                                     ",
"                                                                                                                                                                                                                 @57777777777777777777777777777777777775@                                            7777777777777777777777777777777777777777777777777777777777777777                                                                                                                                                                                                                                                                                                     ",
"                                                                                                                                                                                                                %7777777777777777777777777777777777777777%                                           7777777777777777777777777777777777777777777777777777777777777777                                                                                                                                                                                                                                                                                                     ",
"                                                                                                                                                                                                              .:777777777777777777777777777777777777777777:.                                         7777777777777777777777777777777777777777777777777777777777777777                                                                                                                                                                                                                                                                                                     ",
"                                                                                                                                                                                                             .,77777777777777777777777777777777777777777777,.                                        7777777777777777777777777777777777777777777777777777777777777777                                                                                                                                                                                                                                                                                                     ",
"                                                                                                                                                                                                             :7777777777777777777777777777777777777777777777:                                        7777777777777777777777777777777777777777777777777777777777777777                                                                                                                                                                                                                                                                                                     ",
"                                                                                                                                                                                                            %777777777777777777777777777777777777777777777777%                                       7777777777777777777777777777777777777777777777777777777777777777                                                                                                                                                                                                                                                                                                     ",
"                                                                                                                                                                                                           @77777777777777777777777777777777777777777777777777@                                      7777777777777777777777777777777777777777777777777777777777777777                                                                                                                                                                                                                                                                                                     ",
"                                                                                                                                                                                                          +5777777777777777777777777777777777777777777777777775+                                     7777777777777777777777777777777777777777777777777777777777777777                                                                                                                                                                                                                                                                                                     ",
"                                                                                                                                                                                                          277777777777777777777777777777777777777777777777777772                                     7777777777777777777777777777777777777777777777777777777777777777                                                                                                                                                                                                                                                                                                     ",
"                                                                                                                                                                                                         #777777777777777777777777777777777777777777777777777777#                                    7777777777777777777777777777777777777777777777777777777777777777                                                                                                                                                                                                                                                                                                     ",
"                                                                                                                                                                                                        .47777777777777777777777777777777777777777777777777777774.                                   7777777777777777777777777777777777777777777777777777777777777777                                                                                                                                                        o$=;>146641>;=$o                                                                                                                             ",
"                                                                                                                                                                                                        &77777777777777777777777777777777777777777777777777777777&                                   7777777777777777777777777777777777777777777777777777777777777777                                                                                                                                                     O*<7777777777777777<*O                                                                                                                          ",
"                                                                                                                                                                                                       X5777777777777777777777777777777777777777777777777777777775X                                  7777777777777777777777777777777777777777777777777777777777777777                                                                                                                                                  X-377777777777777777777773-X                                                                                                                       ",
"                                                                                                                                                                                                       -7777777777777777777777777777777777777777777777777777777777-                                  7777777777777777777777777777777777777777777777777777777777777777                                                                                                                                                .&5777777777777777777777777775&.                                                                                                                     ",
"                                                                                                                                                                                                       377777777777777777777777777777777777777777777777777777777773                                  7777777777777777777777777777777777777777777777777777777777777777                                                                                                                                               #47777777777777777777777777777774#                                                                                                                    ",
"                                                                                                                                                                                                      O777777777777777777777777777777777777777777777777777777777777O                                 7777777777777777777777777777777777777777777777777777777777777777                                                                                                                                             +277777777777777777777777777777777772+                                                                                                                  ",
"                                                                                                                                                                                                      *777777777777777777777777777777777777777777777777777777777777*                                 7777777777777777777777777777777777777777777777777777777777777777                                                                                                                                            @57777777777777777777777777777777777775@                                                                                                                 ",
"                                                                                                                                                                                                      <777777777777777777777777777777777777777777777777777777777777<                                 7777777777777777777777777777777777777777777777777777777777777777                                                                                                                                           %7777777777777777777777777777777777777777%                                                                                                                ",
"                                                                                                                                                                                                     o77777777777777777777777777777777777777777777777777777777777777o                                7777777777777777777777777777777777777777777777777777777777777777                                                                                                                                         .:777777777777777777777777777777777777777777:.                                                                                                              ",
"                                                                                                                                                                                                     $77777777777777777777777777777777777777777777777777777777777777$                                7777777777777777777777777777777777777777777777777777777777777777                                                                                                                                        .,77777777777777777777777777777777777777777777,.                                                                                                             ",
"                                                                                                                                                                                                     =77777777777777777777777777777777777777777777777777777777777777=                                7777777777777777777777777777777777777777777777777777777777777777                                                                                                                                        :7777777777777777777777777777777777777777777777:                                                                                                             ",
"                                                                                                                                                                                                     ;77777777777777777777777777777777777777777777777777777777777777;                                7777777777777777777777777777777777777777777777777777777777777777                                                                                                                                       %777777777777777777777777777777777777777777777777%                                                                                                            ",
"                                                                                                                                                                                                     >77777777777777777777777777777777777777777777777777777777777777>                                7777777777777777777777777777777777777777777777777777777777777777                                                                                                                                      @77777777777777777777777777777777777777777777777777@                                                                                                           ",
"                                                                                                                                                                                                     1777777777777777777777777777777777777777777777777777777777777771                                7777777777777777777777777777777777777777777777777777777777777777                                                                                                                                     +5777777777777777777777777777777777777777777777777775+                                                                                                          ",
"                                                                                                                                                                                                     4777777777777777777777777777777777777777777777777777777777777774                                7777777777777777777777777777777777777777777777777777777777777777                                                                                                                                     277777777777777777777777777777777777777777777777777772                                                                                                          ",
"                                                                                                                                                                                                     6777777777777777777777777777777777777777777777777777777777777776                                7777777777777777777777777777777777777777777777777777777777777777                                                                                                                                    #777777777777777777777777777777777777777777777777777777#                                                                                                         ",
"                                                                                                                                                                                                     7777777777777777777777777777777777777777777777777777777777777777                                7777777777777777777777777777777777777777777777777777777777777777                                                                                                                                   .47777777777777777777777777777777777777777777777777777774.                                                                                                        ",
"                                                                                                                                                                                                     7777777777777777777777777777777777777777777777777777777777777777                                7777777777777777777777777777777777777777777777777777777777777777                                                                                                                                   &77777777777777777777777777777777777777777777777777777777&                                                                                                        ",
"                                                                                                                                                                                                     7777777777777777777777777777777777777777777777777777777777777777                                7777777777777777777777777777777777777777777777777777777777777777                                                                                                                                  X5777777777777777777777777777777777777777777777777777777775X                                                                                                       ",
"                                                                                                                                                                                                     7777777777777777777777777777777777777777777777777777777777777777                                7777777777777777777777777777777777777777777777777777777777777777                                                                                                                                  -7777777777777777777777777777777777777777777777777777777777-                                                                                                       ",
"                                                                                                                                                                                                     7777777777777777777777777777777777777777777777777777777777777777                                7777777777777777777777777777777777777777777777777777777777777777                                                                                                                                  377777777777777777777777777777777777777777777777777777777773                                                                                                       ",
"                                                                                                                                                                                                     7777777777777777777777777777777777777777777777777777777777777777                                7777777777777777777777777777777777777777777777777777777777777777                                                                                                                                 O777777777777777777777777777777777777777777777777777777777777O                                                                                                      ",
"                                                                                                                                                                                                     7777777777777777777777777777777777777777777777777777777777777777                                7777777777777777777777777777777777777777777777777777777777777777                                                                                                                                 *777777777777777777777777777777777777777777777777777777777777*                                                                                                      ",
"                                                                                                                                                                                                     7777777777777777777777777777777777777777777777777777777777777777                                7777777777777777777777777777777777777777777777777777777777777777                                                                                                                                 <777777777777777777777777777777777777777777777777777777777777<                                                                                                      ",
"                                                                                                                                                                                                     7777777777777777777777777777777777777777777777777777777777777777                                7777777777777777777777777777777777777777777777777777777777777777                                                                                                                                o77777777777777777777777777777777777777777777777777777777777777o                                                                                                     ",
"                                                                                                                                                                                                     7777777777777777777777777777777777777777777777777777777777777777                                7777777777777777777777777777777777777777777777777777777777777777                                                                                                                                $77777777777777777777777777777777777777777777777777777777777777$                                                                                                     ",
"                                                                                                                                                                                                     7777777777777777777777777777777777777777777777777777777777777777                                7777777777777777777777777777777777777777777777777777777777777777                                                                                                                                =77777777777777777777777777777777777777777777777777777777777777=                                                                                                     ",
"                                                                                                                                                                                                     7777777777777777777777777777777777777777777777777777777777777777                                7777777777777777777777777777777777777777777777777777777777777777                                                                                                                                ;77777777777777777777777777777777777777777777777777777777777777;                                                                                                     ",
"                                                                                                                                                                                                     7777777777777777777777777777777777777777777777777777777777777777                                7777777777777777777777777777777777777777777777777777777777777777                                                                                                                                >77777777777777777777777777777777777777777777777777777777777777>                                                                                                     ",
"                                                                                                                                                                                                     7777777777777777777777777777777777777777777777777777777777777777                                7777777777777777777777777777777777777777777777777777777777777777                                                                                                                                1777777777777777777777777777777777777777777777777777777777777771                                                                                                     ",
"                                                                                                                                                                                                     7777777777777777777777777777777777777777777777777777777777777777                                7777777777777777777777777777777777777777777777777777777777777777                                                                                                                                4777777777777777777777777777777777777777777777777777777777777774                                                                                                     ",
"                                                                                                                                                                                                     7777777777777777777777777777777777777777777777777777777777777777                                7777777777777777777777777777777777777777777777777777777777777777                                                                                                                                6777777777777777777777777777777777777777777777777777777777777776                                                                                                     ",
"                                                                                                                                                                                                     7777777777777777777777777777777777777777777777777777777777777777                                7777777777777777777777777777777777777777777777777777777777777777                                                                                                                                7777777777777777777777777777777777777777777777777777777777777777                                                                                                     ",
"                                                                                                                                                                                                     7777777777777777777777777777777777777777777777777777777777777777                                7777777777777777777777777777777777777777777777777777777777777777                                                                                                                                7777777777777777777777777777777777777777777777777777777777777777                                                                                                     ",
"                                                                                                                                                                                                     7777777777777777777777777777777777777777777777777777777777777777                                7777777777777777777777777777777777777777777777777777777777777777                                                                                                                                7777777777777777777777777777777777777777777777777777777777777777                                                                                                     ",
"                                                                                                                                                                                                     7777777777777777777777777777777777777777777777777777777777777777                                7777777777777777777777777777777777777777777777777777777777777777                                                                                                                                7777777777777777777777777777777777777777777777777777777777777777                                                                                                     ",
"                                                                                                                                                                                                     7777777777777777777777777777777777777777777777777777777777777777                                7777777777777777777777777777777777777777777777777777777777777777                                                                                                                                7777777777777777777777777777777777777777777777777777777777777777                                                                                                     ",
"                                                                                                                                                                                                     7777777777777777777777777777777777777777777777777777777777777777                                7777777777777777777777777777777777777777777777777777777777777777                                                                                                                                7777777777777777777777777777777777777777777777777777777777777777                                                                                                     ",
"                                                                                                                                                                                                     7777777777777777777777777777777777777777777777777777777777777777                                7777777777777777777777777777777777777777777777777777777777777777                                                                                                                                7777777777777777777777777777777777777777777777777777777777777777                                                                                                     ",
"                                                                                                                                                                                                     7777777777777777777777777777777777777777777777777777777777777777                                7777777777777777777777777777777777777777777777777777777777777777                                                                                                                                7777777777777777777777777777777777777777777777777777777777777777                                                                                                     ",
"                                                                                                                                                                                                     7777777777777777777777777777777777777777777777777777777777777777                                7777777777777777777777777777777777777777777777777777777777777777                                                                                                                                7777777777777777777777777777777777777777777777777777777777777777                                                                                                     ",
"                                                                                                                                                                                                     7777777777777777777777777777777777777777777777777777777777777777                                7777777777777777777777777777777777777777777777777777777777777777                                                                                                                                7777777777777777777777777777777777777777777777777777777777777777                                                                                                     ",
"                                                                                                                                                                                                     7777777777777777777777777777777777777777777777777777777777777777                                7777777777777777777777777777777777777777777777777777777777777777                                                                                                                                7777777777777777777777777777777777777777777777777777777777777777                                                                                                     ",
"                                                                                                                                                                                                     7777777777777777777777777777777777777777777777777777777777777777                                7777777777777777777777777777777777777777777777777777777777777777                                                                                                                                7777777777777777777777777777777777777777777777777777777777777777                                                                                                     ",
"                                                                                                                                                                                                     7777777777777777777777777777777777777777777777777777777777777777                                7777777777777777777777777777777777777777777777777777777777777777                                                                                                                                7777777777777777777777777777777777777777777777777777777777777777                                                                                                     ",
"                                                                                                                                                                                                     7777777777777777777777777777777777777777777777777777777777777777                                7777777777777777777777777777777777777777777777777777777777777777                                                                                                                                7777777777777777777777777777777777777777777777777777777777777777                                                                                                     ",
"                                                                                                                                                                                                     7777777777777777777777777777777777777777777777777777777777777777                                7777777777777777777777777777777777777777777777777777777777777777                                                                                                                                7777777777777777777777777777777777777777777777777777777777777777                                                                                                     ",
"                                                                                                                                                                                                     7777777777777777777777777777777777777777777777777777777777777777                                7777777777777777777777777777777777777777777777777777777777777777                                                                                                                                7777777777777777777777777777777777777777777777777777777777777777                                                                                                     ",
"                                                                                                                                                                                                     7777777777777777777777777777777777777777777777777777777777777777                                7777777777777777777777777777777777777777777777777777777777777777                                                                                                                                7777777777777777777777777777777777777777777777777777777777777777                                                                                                     ",
"                                                                                                                                                                                                     7777777777777777777777777777777777777777777777777777777777777777                                7777777777777777777777777777777777777777777777777777777777777777                                                                                                                                7777777777777777777777777777777777777777777777777777777777777777                                                                                                     ",
"                                                                                                                                                                                                     7777777777777777777777777777777777777777777777777777777777777777                                7777777777777777777777777777777777777777777777777777777777777777                                                                                                                                7777777777777777777777777777777777777777777777777777777777777777                                                                                                     ",
"                                                                                                                                                                                                     7777777777777777777777777777777777777777777777777777777777777777                                7777777777777777777777777777777777777777777777777777777777777777                                                                                                                                7777777777777777777777777777777777777777777777777777777777777777                                                                                                     ",
"                                                                                                                                                                                                     7777777777777777777777777777777777777777777777777777777777777777                                7777777777777777777777777777777777777777777777777777777777777777                                                                                                                                7777777777777777777777777777777777777777777777777777777777777777                                                                                                     ",
"                                                                                                                                                                                                     7777777777777777777777777777777777777777777777777777777777777777                                7777777777777777777777777777777777777777777777777777777777777777                                                                                                                                7777777777777777777777777777777777777777777777777777777777777777                                                                                                     ",
"                                                                                                                                                                                                     7777777777777777777777777777777777777777777777777777777777777777                                7777777777777777777777777777777777777777777777777777777777777777                                                                                                                                7777777777777777777777777777777777777777777777777777777777777777                                                                                                     ",
"                                                                                                                                                                                                     7777777777777777777777777777777777777777777777777777777777777777                                7777777777777777777777777777777777777777777777777777777777777777                                                                                                                                7777777777777777777777777777777777777777777777777777777777777777                                                                                                     ",
"                                                                                                                                                                                                     7777777777777777777777777777777777777777777777777777777777777777                                7777777777777777777777777777777777777777777777777777777777777777                                                                                                                                7777777777777777777777777777777777777777777777777777777777777777                                                                                                     ",
"                                                                                                                                                                                                     7777777777777777777777777777777777777777777777777777777777777777                                7777777777777777777777777777777777777777777777777777777777777777                                                                                                                                7777777777777777777777777777777777777777777777777777777777777777                                                                                                     ",
"                                                                                                                                                                                                     7777777777777777777777777777777777777777777777777777777777777777                                7777777777777777777777777777777777777777777777777777777777777777                                                                                                                                7777777777777777777777777777777777777777777777777777777777777777                                                                                                     ",
"                                                                                                                                                                                                     7777777777777777777777777777777777777777777777777777777777777777                                7777777777777777777777777777777777777777777777777777777777777777                                                                                                                                7777777777777777777777777777777777777777777777777777777777777777                                                                                                     ",
"                                                                                                                                                                                                     7777777777777777777777777777777777777777777777777777777777777777                                7777777777777777777777777777777777777777777777777777777777777777                                                                                                                                7777777777777777777777777777777777777777777777777777777777777777                                                                                                     ",
"                                                                                                                                                                                                     7777777777777777777777777777777777777777777777777777777777777777                                7777777777777777777777777777777777777777777777777777777777777777                                                                                                                                7777777777777777777777777777777777777777777777777777777777777777                                                                                                     ",
"                                                                                                                                                                                                     7777777777777777777777777777777777777777777777777777777777777777                                7777777777777777777777777777777777777777777777777777777777777777                                                                                                                                7777777777777777777777777777777777777777777777777777777777777777                                                                                                     ",
"                                                                                                                                                                                                     7777777777777777777777777777777777777777777777777777777777777777                                7777777777777777777777777777777777777777777777777777777777777777                                                                                                                                7777777777777777777777777777777777777777777777777777777777777777                                                                                                     ",
"                                                                                                                             o$=;>146641>;=$o                                                        7777777777777777777777777777777777777777777777777777777777777777                                7777777777777777777777777777777777777777777777777777777777777777                                                        o$=;>146641>;=$o                                                        7777777777777777777777777777777777777777777777777777777777777777                                                                                                     ",
"                                                                                                                          O*<7777777777777777<*O                                                     7777777777777777777777777777777777777777777777777777777777777777                                7777777777777777777777777777777777777777777777777777777777777777                                                     O*<7777777777777777<*O                                                     7777777777777777777777777777777777777777777777777777777777777777                                                                                                     ",
"                                                                                                                       X-377777777777777777777773-X                                                  7777777777777777777777777777777777777777777777777777777777777777                                7777777777777777777777777777777777777777777777777777777777777777                                                  X-377777777777777777777773-X                                                  7777777777777777777777777777777777777777777777777777777777777777                                                                                                     ",
"                                                                                                                     .&5777777777777777777777777775&.                                                7777777777777777777777777777777777777777777777777777777777777777                                7777777777777777777777777777777777777777777777777777777777777777                                                .&5777777777777777777777777775&.                                                7777777777777777777777777777777777777777777777777777777777777777                                                                                                     ",
"                                                                                                                    #47777777777777777777777777777774#                                               7777777777777777777777777777777777777777777777777777777777777777                                7777777777777777777777777777777777777777777777777777777777777777                                               #47777777777777777777777777777774#                                               7777777777777777777777777777777777777777777777777777777777777777                                                                                                     ",
"                                                                                                                  +277777777777777777777777777777777772+                                             7777777777777777777777777777777777777777777777777777777777777777                                7777777777777777777777777777777777777777777777777777777777777777                                             +277777777777777777777777777777777772+                                             7777777777777777777777777777777777777777777777777777777777777777                                                                                                     ",
"                                                                                                                 @57777777777777777777777777777777777775@                                            7777777777777777777777777777777777777777777777777777777777777777                                7777777777777777777777777777777777777777777777777777777777777777                                            @57777777777777777777777777777777777775@                                            7777777777777777777777777777777777777777777777777777777777777777                                                                                                     ",
"                                                                                                                %7777777777777777777777777777777777777777%                                           7777777777777777777777777777777777777777777777777777777777777777                                7777777777777777777777777777777777777777777777777777777777777777                                           %7777777777777777777777777777777777777777%                                           7777777777777777777777777777777777777777777777777777777777777777                                                                                                     ",
"                                                                                                              .:777777777777777777777777777777777777777777:.                                         7777777777777777777777777777777777777777777777777777777777777777                                7777777777777777777777777777777777777777777777777777777777777777                                         .:777777777777777777777777777777777777777777:.                                         7777777777777777777777777777777777777777777777777777777777777777                                                                                                     ",
"                                                                                                             .,77777777777777777777777777777777777777777777,.                                        7777777777777777777777777777777777777777777777777777777777777777                                7777777777777777777777777777777777777777777777777777777777777777                                        .,77777777777777777777777777777777777777777777,.                                        7777777777777777777777777777777777777777777777777777777777777777                                                                                                     ",
"                                                                                                             :7777777777777777777777777777777777777777777777:                                        7777777777777777777777777777777777777777777777777777777777777777                                7777777777777777777777777777777777777777777777777777777777777777                                        :7777777777777777777777777777777777777777777777:                                        7777777777777777777777777777777777777777777777777777777777777777                                                                                                     ",
"                                                                                                            %777777777777777777777777777777777777777777777777%                                       7777777777777777777777777777777777777777777777777777777777777777                                7777777777777777777777777777777777777777777777777777777777777777                                       %777777777777777777777777777777777777777777777777%                                       7777777777777777777777777777777777777777777777777777777777777777                                                                                                     ",
"                                                                                                           @77777777777777777777777777777777777777777777777777@                                      7777777777777777777777777777777777777777777777777777777777777777                                7777777777777777777777777777777777777777777777777777777777777777                                      @77777777777777777777777777777777777777777777777777@                                      7777777777777777777777777777777777777777777777777777777777777777                                                                                                     ",
"                                                                                                          +5777777777777777777777777777777777777777777777777775+                                     7777777777777777777777777777777777777777777777777777777777777777                                7777777777777777777777777777777777777777777777777777777777777777                                     +5777777777777777777777777777777777777777777777777775+                                     7777777777777777777777777777777777777777777777777777777777777777                                                                                                     ",
"                                                                                                          277777777777777777777777777777777777777777777777777772                                     7777777777777777777777777777777777777777777777777777777777777777                                7777777777777777777777777777777777777777777777777777777777777777                                     277777777777777777777777777777777777777777777777777772                                     7777777777777777777777777777777777777777777777777777777777777777                                                                                                     ",
"                                                                                                         #777777777777777777777777777777777777777777777777777777#                                    7777777777777777777777777777777777777777777777777777777777777777                                7777777777777777777777777777777777777777777777777777777777777777                                    #777777777777777777777777777777777777777777777777777777#                                    7777777777777777777777777777777777777777777777777777777777777777                                                                                                     ",
"                                                                                                        .47777777777777777777777777777777777777777777777777777774.                                   7777777777777777777777777777777777777777777777777777777777777777                                7777777777777777777777777777777777777777777777777777777777777777                                   .47777777777777777777777777777777777777777777777777777774.                                   7777777777777777777777777777777777777777777777777777777777777777                                                                                                     ",
"                                                                                                        &77777777777777777777777777777777777777777777777777777777&                                   7777777777777777777777777777777777777777777777777777777777777777                                7777777777777777777777777777777777777777777777777777777777777777                                   &77777777777777777777777777777777777777777777777777777777&                                   7777777777777777777777777777777777777777777777777777777777777777                                                                                                     ",
"                                                                                                       X5777777777777777777777777777777777777777777777777777777775X                                  7777777777777777777777777777777777777777777777777777777777777777                                7777777777777777777777777777777777777777777777777777777777777777                                  X5777777777777777777777777777777777777777777777777777777775X                                  7777777777777777777777777777777777777777777777777777777777777777                                                                                                     ",
"                                                                                                       -7777777777777777777777777777777777777777777777777777777777-                                  7777777777777777777777777777777777777777777777777777777777777777                                7777777777777777777777777777777777777777777777777777777777777777                                  -7777777777777777777777777777777777777777777777777777777777-                                  7777777777777777777777777777777777777777777777777777777777777777                                                                                                     ",
"                                                                                                       377777777777777777777777777777777777777777777777777777777773                                  7777777777777777777777777777777777777777777777777777777777777777                                7777777777777777777777777777777777777777777777777777777777777777                                  377777777777777777777777777777777777777777777777777777777773                                  7777777777777777777777777777777777777777777777777777777777777777                                                                                                     ",
"                                                                                                      O777777777777777777777777777777777777777777777777777777777777O                                 7777777777777777777777777777777777777777777777777777777777777777                                7777777777777777777777777777777777777777777777777777777777777777                                 O777777777777777777777777777777777777777777777777777777777777O                                 7777777777777777777777777777777777777777777777777777777777777777                                                                                                     ",
"                                                                                                      *777777777777777777777777777777777777777777777777777777777777*                                 7777777777777777777777777777777777777777777777777777777777777777                                7777777777777777777777777777777777777777777777777777777777777777                                 *777777777777777777777777777777777777777777777777777777777777*                                 7777777777777777777777777777777777777777777777777777777777777777                                                                                                     ",
"                                                                                                      <777777777777777777777777777777777777777777777777777777777777<                                 7777777777777777777777777777777777777777777777777777777777777777                                7777777777777777777777777777777777777777777777777777777777777777                                 <777777777777777777777777777777777777777777777777777777777777<                                 7777777777777777777777777777777777777777777777777777777777777777                                                                                                     ",
"                                                                                                     o77777777777777777777777777777777777777777777777777777777777777o                                7777777777777777777777777777777777777777777777777777777777777777                                7777777777777777777777777777777777777777777777777777777777777777                                o77777777777777777777777777777777777777777777777777777777777777o                                7777777777777777777777777777777777777777777777777777777777777777                                                                                                     ",
"                                                                                                     $77777777777777777777777777777777777777777777777777777777777777$                                7777777777777777777777777777777777777777777777777777777777777777                                7777777777777777777777777777777777777777777777777777777777777777                                $77777777777777777777777777777777777777777777777777777777777777$                                7777777777777777777777777777777777777777777777777777777777777777                                                                                                     ",
"                                                                                                     =77777777777777777777777777777777777777777777777777777777777777=                                7777777777777777777777777777777777777777777777777777777777777777                                7777777777777777777777777777777777777777777777777777777777777777                                =77777777777777777777777777777777777777777777777777777777777777=                                7777777777777777777777777777777777777777777777777777777777777777                                                                                                     ",
"                                                                                                     ;77777777777777777777777777777777777777777777777777777777777777;                                7777777777777777777777777777777777777777777777777777777777777777                                7777777777777777777777777777777777777777777777777777777777777777                                ;77777777777777777777777777777777777777777777777777777777777777;                                7777777777777777777777777777777777777777777777777777777777777777                                                                                                     ",
"                                                                                                     >77777777777777777777777777777777777777777777777777777777777777>                                7777777777777777777777777777777777777777777777777777777777777777                                7777777777777777777777777777777777777777777777777777777777777777                                >77777777777777777777777777777777777777777777777777777777777777>                                7777777777777777777777777777777777777777777777777777777777777777                                                                                                     ",
"                                                                                                     1777777777777777777777777777777777777777777777777777777777777771                                7777777777777777777777777777777777777777777777777777777777777777                                7777777777777777777777777777777777777777777777777777777777777777                                1777777777777777777777777777777777777777777777777777777777777771                                7777777777777777777777777777777777777777777777777777777777777777                                                                                                     ",
"                                                                                                     4777777777777777777777777777777777777777777777777777777777777774                                7777777777777777777777777777777777777777777777777777777777777777                                7777777777777777777777777777777777777777777777777777777777777777                                4777777777777777777777777777777777777777777777777777777777777774                                7777777777777777777777777777777777777777777777777777777777777777                                                                                                     ",
"                                                                                                     6777777777777777777777777777777777777777777777777777777777777776                                7777777777777777777777777777777777777777777777777777777777777777                                7777777777777777777777777777777777777777777777777777777777777777                                6777777777777777777777777777777777777777777777777777777777777776                                7777777777777777777777777777777777777777777777777777777777777777                                                                                                     ",
"                                                                                                     7777777777777777777777777777777777777777777777777777777777777777                                7777777777777777777777777777777777777777777777777777777777777777                                7777777777777777777777777777777777777777777777777777777777777777                                7777777777777777777777777777777777777777777777777777777777777777                                7777777777777777777777777777777777777777777777777777777777777777                                                                                                     ",
"                                                                                                     7777777777777777777777777777777777777777777777777777777777777777                                7777777777777777777777777777777777777777777777777777777777777777                                7777777777777777777777777777777777777777777777777777777777777777                                7777777777777777777777777777777777777777777777777777777777777777                                7777777777777777777777777777777777777777777777777777777777777777                                                                                                     ",
"                                                                                                     7777777777777777777777777777777777777777777777777777777777777777                                7777777777777777777777777777777777777777777777777777777777777777                                7777777777777777777777777777777777777777777777777777777777777777                                7777777777777777777777777777777777777777777777777777777777777777                                7777777777777777777777777777777777777777777777777777777777777777                                                                                                     ",
"                                                                                                     7777777777777777777777777777777777777777777777777777777777777777                                7777777777777777777777777777777777777777777777777777777777777777                                7777777777777777777777777777777777777777777777777777777777777777                                7777777777777777777777777777777777777777777777777777777777777777                                7777777777777777777777777777777777777777777777777777777777777777                                                                                                     ",
"                                                                                                     7777777777777777777777777777777777777777777777777777777777777777                                7777777777777777777777777777777777777777777777777777777777777777                                7777777777777777777777777777777777777777777777777777777777777777                                7777777777777777777777777777777777777777777777777777777777777777                                7777777777777777777777777777777777777777777777777777777777777777                                                                                                     ",
"                                                                                                     7777777777777777777777777777777777777777777777777777777777777777                                7777777777777777777777777777777777777777777777777777777777777777                                7777777777777777777777777777777777777777777777777777777777777777                                7777777777777777777777777777777777777777777777777777777777777777                                7777777777777777777777777777777777777777777777777777777777777777                                                                                                     ",
"                                                                                                     7777777777777777777777777777777777777777777777777777777777777777                                7777777777777777777777777777777777777777777777777777777777777777                                7777777777777777777777777777777777777777777777777777777777777777                                7777777777777777777777777777777777777777777777777777777777777777                                7777777777777777777777777777777777777777777777777777777777777777                                                                                                     ",
"                                                                                                     7777777777777777777777777777777777777777777777777777777777777777                                7777777777777777777777777777777777777777777777777777777777777777                                7777777777777777777777777777777777777777777777777777777777777777                                7777777777777777777777777777777777777777777777777777777777777777                                7777777777777777777777777777777777777777777777777777777777777777                                                                                                     ",
"                                                                                                     7777777777777777777777777777777777777777777777777777777777777777                                7777777777777777777777777777777777777777777777777777777777777777                                7777777777777777777777777777777777777777777777777777777777777777                                7777777777777777777777777777777777777777777777777777777777777777                                7777777777777777777777777777777777777777777777777777777777777777                                                                                                     ",
"                                                                                                     7777777777777777777777777777777777777777777777777777777777777777                                7777777777777777777777777777777777777777777777777777777777777777                                7777777777777777777777777777777777777777777777777777777777777777                                7777777777777777777777777777777777777777777777777777777777777777                                7777777777777777777777777777777777777777777777777777777777777777                                                                                                     ",
"                                                                                                     7777777777777777777777777777777777777777777777777777777777777777                                7777777777777777777777777777777777777777777777777777777777777777                                7777777777777777777777777777777777777777777777777777777777777777                                7777777777777777777777777777777777777777777777777777777777777777                                7777777777777777777777777777777777777777777777777777777777777777                                                                                                     ",
"                                                                                                     7777777777777777777777777777777777777777777777777777777777777777                                7777777777777777777777777777777777777777777777777777777777777777                                7777777777777777777777777777777777777777777777777777777777777777                                7777777777777777777777777777777777777777777777777777777777777777                                7777777777777777777777777777777777777777777777777777777777777777                                                                                                     ",
"                                                                                                     7777777777777777777777777777777777777777777777777777777777777777                                7777777777777777777777777777777777777777777777777777777777777777                                7777777777777777777777777777777777777777777777777777777777777777                                7777777777777777777777777777777777777777777777777777777777777777                                7777777777777777777777777777777777777777777777777777777777777777                                                                                                     ",
"                                                                                                     7777777777777777777777777777777777777777777777777777777777777777                                7777777777777777777777777777777777777777777777777777777777777777                                7777777777777777777777777777777777777777777777777777777777777777                                7777777777777777777777777777777777777777777777777777777777777777                                7777777777777777777777777777777777777777777777777777777777777777                                                                                                     ",
"                                                                                                     7777777777777777777777777777777777777777777777777777777777777777                                7777777777777777777777777777777777777777777777777777777777777777                                7777777777777777777777777777777777777777777777777777777777777777                                7777777777777777777777777777777777777777777777777777777777777777                                7777777777777777777777777777777777777777777777777777777777777777                                                                                                     ",
"                                                                                                     7777777777777777777777777777777777777777777777777777777777777777                                7777777777777777777777777777777777777777777777777777777777777777                                7777777777777777777777777777777777777777777777777777777777777777                                7777777777777777777777777777777777777777777777777777777777777777                                7777777777777777777777777777777777777777777777777777777777777777                                                                                                     ",
"                                                                                                     7777777777777777777777777777777777777777777777777777777777777777                                7777777777777777777777777777777777777777777777777777777777777777                                7777777777777777777777777777777777777777777777777777777777777777                                7777777777777777777777777777777777777777777777777777777777777777                                7777777777777777777777777777777777777777777777777777777777777777                                                                                                     ",
"                                                                                                     7777777777777777777777777777777777777777777777777777777777777777                                7777777777777777777777777777777777777777777777777777777777777777                                7777777777777777777777777777777777777777777777777777777777777777                                7777777777777777777777777777777777777777777777777777777777777777                                7777777777777777777777777777777777777777777777777777777777777777                                                                                                     ",
"                                                                                                     7777777777777777777777777777777777777777777777777777777777777777                                7777777777777777777777777777777777777777777777777777777777777777                                7777777777777777777777777777777777777777777777777777777777777777                                7777777777777777777777777777777777777777777777777777777777777777                                7777777777777777777777777777777777777777777777777777777777777777                                                                                                     ",
"                                                                                                     7777777777777777777777777777777777777777777777777777777777777777                                7777777777777777777777777777777777777777777777777777777777777777                                7777777777777777777777777777777777777777777777777777777777777777                                7777777777777777777777777777777777777777777777777777777777777777                                7777777777777777777777777777777777777777777777777777777777777777                                                                                                     ",
"                                                                                                     7777777777777777777777777777777777777777777777777777777777777777                                7777777777777777777777777777777777777777777777777777777777777777                                7777777777777777777777777777777777777777777777777777777777777777                                7777777777777777777777777777777777777777777777777777777777777777                                7777777777777777777777777777777777777777777777777777777777777777                                                                                                     ",
"                                                                                                     7777777777777777777777777777777777777777777777777777777777777777                                7777777777777777777777777777777777777777777777777777777777777777                                7777777777777777777777777777777777777777777777777777777777777777                                7777777777777777777777777777777777777777777777777777777777777777                                7777777777777777777777777777777777777777777777777777777777777777                                                                                                     ",
"                                                                                                     7777777777777777777777777777777777777777777777777777777777777777                                7777777777777777777777777777777777777777777777777777777777777777                                7777777777777777777777777777777777777777777777777777777777777777                                7777777777777777777777777777777777777777777777777777777777777777                                7777777777777777777777777777777777777777777777777777777777777777                                                                                                     ",
"                                                                                                     7777777777777777777777777777777777777777777777777777777777777777                                7777777777777777777777777777777777777777777777777777777777777777                                7777777777777777777777777777777777777777777777777777777777777777                                7777777777777777777777777777777777777777777777777777777777777777                                7777777777777777777777777777777777777777777777777777777777777777                                                                                                     ",
"                                                                                                     7777777777777777777777777777777777777777777777777777777777777777                                7777777777777777777777777777777777777777777777777777777777777777                                7777777777777777777777777777777777777777777777777777777777777777                                7777777777777777777777777777777777777777777777777777777777777777                                7777777777777777777777777777777777777777777777777777777777777777                                                                                                     ",
"                                                                                                     7777777777777777777777777777777777777777777777777777777777777777                                7777777777777777777777777777777777777777777777777777777777777777                                7777777777777777777777777777777777777777777777777777777777777777                                7777777777777777777777777777777777777777777777777777777777777777                                7777777777777777777777777777777777777777777777777777777777777777                                                                                                     ",
"                                                                                                     7777777777777777777777777777777777777777777777777777777777777777                                7777777777777777777777777777777777777777777777777777777777777777                                7777777777777777777777777777777777777777777777777777777777777777                                7777777777777777777777777777777777777777777777777777777777777777                                7777777777777777777777777777777777777777777777777777777777777777                                                                                                     ",
"                                                                                                     7777777777777777777777777777777777777777777777777777777777777777                                7777777777777777777777777777777777777777777777777777777777777777                                7777777777777777777777777777777777777777777777777777777777777777                                7777777777777777777777777777777777777777777777777777777777777777                                7777777777777777777777777777777777777777777777777777777777777777                                                                                                     ",
"                                                                                                     7777777777777777777777777777777777777777777777777777777777777777                                7777777777777777777777777777777777777777777777777777777777777777                                7777777777777777777777777777777777777777777777777777777777777777                                7777777777777777777777777777777777777777777777777777777777777777                                7777777777777777777777777777777777777777777777777777777777777777                                                                                                     ",
"                                                                                                     7777777777777777777777777777777777777777777777777777777777777777                                7777777777777777777777777777777777777777777777777777777777777777                                7777777777777777777777777777777777777777777777777777777777777777                                7777777777777777777777777777777777777777777777777777777777777777                                7777777777777777777777777777777777777777777777777777777777777777                                                                                                     ",
"                                                                                                     7777777777777777777777777777777777777777777777777777777777777777                                7777777777777777777777777777777777777777777777777777777777777777                                7777777777777777777777777777777777777777777777777777777777777777                                7777777777777777777777777777777777777777777777777777777777777777                                7777777777777777777777777777777777777777777777777777777777777777                                                                                                     ",
"                                                                                                     7777777777777777777777777777777777777777777777777777777777777777                                7777777777777777777777777777777777777777777777777777777777777777                                7777777777777777777777777777777777777777777777777777777777777777                                7777777777777777777777777777777777777777777777777777777777777777                                7777777777777777777777777777777777777777777777777777777777777777                                                                                                     ",
"                                                                                                     7777777777777777777777777777777777777777777777777777777777777777                                7777777777777777777777777777777777777777777777777777777777777777                                7777777777777777777777777777777777777777777777777777777777777777                                7777777777777777777777777777777777777777777777777777777777777777                                7777777777777777777777777777777777777777777777777777777777777777                                                                                                     ",
"                                                                                                     7777777777777777777777777777777777777777777777777777777777777777                                7777777777777777777777777777777777777777777777777777777777777777                                7777777777777777777777777777777777777777777777777777777777777777                                7777777777777777777777777777777777777777777777777777777777777777                                7777777777777777777777777777777777777777777777777777777777777777                                                                                                     ",
"                                                                                                     7777777777777777777777777777777777777777777777777777777777777777                                7777777777777777777777777777777777777777777777777777777777777777                                7777777777777777777777777777777777777777777777777777777777777777                                7777777777777777777777777777777777777777777777777777777777777777                                7777777777777777777777777777777777777777777777777777777777777777                                                                                                     ",
"                                                                                                     7777777777777777777777777777777777777777777777777777777777777777                                7777777777777777777777777777777777777777777777777777777777777777                                7777777777777777777777777777777777777777777777777777777777777777                                7777777777777777777777777777777777777777777777777777777777777777                                7777777777777777777777777777777777777777777777777777777777777777                                                                                                     ",
"                                                                                                     7777777777777777777777777777777777777777777777777777777777777777                                7777777777777777777777777777777777777777777777777777777777777777                                7777777777777777777777777777777777777777777777777777777777777777                                7777777777777777777777777777777777777777777777777777777777777777                                7777777777777777777777777777777777777777777777777777777777777777                                                                                                     ",
"                                                                                                     7777777777777777777777777777777777777777777777777777777777777777                                7777777777777777777777777777777777777777777777777777777777777777                                7777777777777777777777777777777777777777777777777777777777777777                                7777777777777777777777777777777777777777777777777777777777777777                                7777777777777777777777777777777777777777777777777777777777777777                                                                                                     ",
"                                                                                                     7777777777777777777777777777777777777777777777777777777777777777                                7777777777777777777777777777777777777777777777777777777777777777                                7777777777777777777777777777777777777777777777777777777777777777                                7777777777777777777777777777777777777777777777777777777777777777                                7777777777777777777777777777777777777777777777777777777777777777                                                                                                     ",
"                                                                                                     7777777777777777777777777777777777777777777777777777777777777777                                7777777777777777777777777777777777777777777777777777777777777777                                7777777777777777777777777777777777777777777777777777777777777777                                7777777777777777777777777777777777777777777777777777777777777777                                7777777777777777777777777777777777777777777777777777777777777777                                                                                                     ",
"                                                                                                     7777777777777777777777777777777777777777777777777777777777777777                                7777777777777777777777777777777777777777777777777777777777777777                                7777777777777777777777777777777777777777777777777777777777777777                                7777777777777777777777777777777777777777777777777777777777777777                                7777777777777777777777777777777777777777777777777777777777777777                                                                                                     ",
"                                                                                                     7777777777777777777777777777777777777777777777777777777777777777                                7777777777777777777777777777777777777777777777777777777777777777                                7777777777777777777777777777777777777777777777777777777777777777                                7777777777777777777777777777777777777777777777777777777777777777                                7777777777777777777777777777777777777777777777777777777777777777                                                                                                     ",
"                                                                                                     7777777777777777777777777777777777777777777777777777777777777777                                7777777777777777777777777777777777777777777777777777777777777777                                7777777777777777777777777777777777777777777777777777777777777777                                7777777777777777777777777777777777777777777777777777777777777777                                7777777777777777777777777777777777777777777777777777777777777777                                                                                                     ",
"                                                                                                     7777777777777777777777777777777777777777777777777777777777777777                                7777777777777777777777777777777777777777777777777777777777777777                                7777777777777777777777777777777777777777777777777777777777777777                                7777777777777777777777777777777777777777777777777777777777777777                                7777777777777777777777777777777777777777777777777777777777777777                                                                                                     ",
"                                                                                                     7777777777777777777777777777777777777777777777777777777777777777                                7777777777777777777777777777777777777777777777777777777777777777                                7777777777777777777777777777777777777777777777777777777777777777                                7777777777777777777777777777777777777777777777777777777777777777                                7777777777777777777777777777777777777777777777777777777777777777                                                                                                     ",
"                                                                                                     7777777777777777777777777777777777777777777777777777777777777777                                7777777777777777777777777777777777777777777777777777777777777777                                7777777777777777777777777777777777777777777777777777777777777777                                7777777777777777777777777777777777777777777777777777777777777777                                7777777777777777777777777777777777777777777777777777777777777777                                                                                                     ",
"                                                                                                     7777777777777777777777777777777777777777777777777777777777777777                                7777777777777777777777777777777777777777777777777777777777777777                                7777777777777777777777777777777777777777777777777777777777777777                                7777777777777777777777777777777777777777777777777777777777777777                                7777777777777777777777777777777777777777777777777777777777777777                                                                                                     ",
"                                                                                                     7777777777777777777777777777777777777777777777777777777777777777                                7777777777777777777777777777777777777777777777777777777777777777                                7777777777777777777777777777777777777777777777777777777777777777                                7777777777777777777777777777777777777777777777777777777777777777                                7777777777777777777777777777777777777777777777777777777777777777                                                                                                     ",
"                                                                                                     7777777777777777777777777777777777777777777777777777777777777777                                7777777777777777777777777777777777777777777777777777777777777777                                7777777777777777777777777777777777777777777777777777777777777777                                7777777777777777777777777777777777777777777777777777777777777777                                7777777777777777777777777777777777777777777777777777777777777777                                                                                                     ",
"                                                                                                     7777777777777777777777777777777777777777777777777777777777777777                                7777777777777777777777777777777777777777777777777777777777777777                                7777777777777777777777777777777777777777777777777777777777777777                                7777777777777777777777777777777777777777777777777777777777777777                                7777777777777777777777777777777777777777777777777777777777777777                                                                                                     ",
"                                                                                                     7777777777777777777777777777777777777777777777777777777777777777                                7777777777777777777777777777777777777777777777777777777777777777                                7777777777777777777777777777777777777777777777777777777777777777                                7777777777777777777777777777777777777777777777777777777777777777                                7777777777777777777777777777777777777777777777777777777777777777                                                                                                     ",
"                                                                                                     7777777777777777777777777777777777777777777777777777777777777777                                7777777777777777777777777777777777777777777777777777777777777777                                7777777777777777777777777777777777777777777777777777777777777777                                7777777777777777777777777777777777777777777777777777777777777777                                7777777777777777777777777777777777777777777777777777777777777777                                                                                                     ",
"                                                                                                     7777777777777777777777777777777777777777777777777777777777777777                                7777777777777777777777777777777777777777777777777777777777777777                                7777777777777777777777777777777777777777777777777777777777777777                                7777777777777777777777777777777777777777777777777777777777777777                                7777777777777777777777777777777777777777777777777777777777777777                                                                                                     ",
"                                                                                                     7777777777777777777777777777777777777777777777777777777777777777                                7777777777777777777777777777777777777777777777777777777777777777                                7777777777777777777777777777777777777777777777777777777777777777                                7777777777777777777777777777777777777777777777777777777777777777                                7777777777777777777777777777777777777777777777777777777777777777                                                                                                     ",
"                                                                                                     7777777777777777777777777777777777777777777777777777777777777777                                7777777777777777777777777777777777777777777777777777777777777777                                7777777777777777777777777777777777777777777777777777777777777777                                7777777777777777777777777777777777777777777777777777777777777777                                7777777777777777777777777777777777777777777777777777777777777777                                                                                                     ",
"                                                                                                     7777777777777777777777777777777777777777777777777777777777777777                                7777777777777777777777777777777777777777777777777777777777777777                                7777777777777777777777777777777777777777777777777777777777777777                                7777777777777777777777777777777777777777777777777777777777777777                                7777777777777777777777777777777777777777777777777777777777777777                                                                                                     ",
"                                                                                                     7777777777777777777777777777777777777777777777777777777777777777                                7777777777777777777777777777777777777777777777777777777777777777                                7777777777777777777777777777777777777777777777777777777777777777                                7777777777777777777777777777777777777777777777777777777777777777                                7777777777777777777777777777777777777777777777777777777777777777                                                                                                     ",
"                                                                                                     7777777777777777777777777777777777777777777777777777777777777777                                7777777777777777777777777777777777777777777777777777777777777777                                7777777777777777777777777777777777777777777777777777777777777777                                7777777777777777777777777777777777777777777777777777777777777777                                7777777777777777777777777777777777777777777777777777777777777777                                                                                                     ",
"                                                                                                     7777777777777777777777777777777777777777777777777777777777777777                                7777777777777777777777777777777777777777777777777777777777777777                                7777777777777777777777777777777777777777777777777777777777777777                                7777777777777777777777777777777777777777777777777777777777777777                                7777777777777777777777777777777777777777777777777777777777777777                                                                                                     ",
"                                                                                                     7777777777777777777777777777777777777777777777777777777777777777                                7777777777777777777777777777777777777777777777777777777777777777                                7777777777777777777777777777777777777777777777777777777777777777                                7777777777777777777777777777777777777777777777777777777777777777                                7777777777777777777777777777777777777777777777777777777777777777                                                                                                     ",
"                                                                                                     7777777777777777777777777777777777777777777777777777777777777777                                7777777777777777777777777777777777777777777777777777777777777777                                7777777777777777777777777777777777777777777777777777777777777777                                7777777777777777777777777777777777777777777777777777777777777777                                7777777777777777777777777777777777777777777777777777777777777777                                                                                                     ",
"                                                                                                     7777777777777777777777777777777777777777777777777777777777777777                                7777777777777777777777777777777777777777777777777777777777777777                                7777777777777777777777777777777777777777777777777777777777777777                                7777777777777777777777777777777777777777777777777777777777777777                                7777777777777777777777777777777777777777777777777777777777777777                                                                                                     ",
"                                                                                                     7777777777777777777777777777777777777777777777777777777777777777                                7777777777777777777777777777777777777777777777777777777777777777                                7777777777777777777777777777777777777777777777777777777777777777                                7777777777777777777777777777777777777777777777777777777777777777                                7777777777777777777777777777777777777777777777777777777777777777                                                                                                     ",
"                                                                                                     7777777777777777777777777777777777777777777777777777777777777777                                7777777777777777777777777777777777777777777777777777777777777777                                7777777777777777777777777777777777777777777777777777777777777777                                7777777777777777777777777777777777777777777777777777777777777777                                7777777777777777777777777777777777777777777777777777777777777777                                                                                                     ",
"                                                                                                     7777777777777777777777777777777777777777777777777777777777777777                                7777777777777777777777777777777777777777777777777777777777777777                                7777777777777777777777777777777777777777777777777777777777777777                                7777777777777777777777777777777777777777777777777777777777777777                                7777777777777777777777777777777777777777777777777777777777777777                                                                                                     ",
"                                                                                                     7777777777777777777777777777777777777777777777777777777777777777                                7777777777777777777777777777777777777777777777777777777777777777                                7777777777777777777777777777777777777777777777777777777777777777                                7777777777777777777777777777777777777777777777777777777777777777                                7777777777777777777777777777777777777777777777777777777777777777                                                                                                     ",
"                                                                                                     7777777777777777777777777777777777777777777777777777777777777777                                7777777777777777777777777777777777777777777777777777777777777777                                7777777777777777777777777777777777777777777777777777777777777777                                7777777777777777777777777777777777777777777777777777777777777777                                7777777777777777777777777777777777777777777777777777777777777777                                                                                                     ",
"                                                                                                     7777777777777777777777777777777777777777777777777777777777777777                                7777777777777777777777777777777777777777777777777777777777777777                                7777777777777777777777777777777777777777777777777777777777777777                                7777777777777777777777777777777777777777777777777777777777777777                                7777777777777777777777777777777777777777777777777777777777777777                                                                                                     ",
"                                                                                                     7777777777777777777777777777777777777777777777777777777777777777                                7777777777777777777777777777777777777777777777777777777777777777                                7777777777777777777777777777777777777777777777777777777777777777                                7777777777777777777777777777777777777777777777777777777777777777                                7777777777777777777777777777777777777777777777777777777777777777                                                                                                     ",
"                                                                                                     7777777777777777777777777777777777777777777777777777777777777777                                7777777777777777777777777777777777777777777777777777777777777777                                7777777777777777777777777777777777777777777777777777777777777777                                7777777777777777777777777777777777777777777777777777777777777777                                7777777777777777777777777777777777777777777777777777777777777777                                                                                                     ",
"                                                                                                     7777777777777777777777777777777777777777777777777777777777777777                                7777777777777777777777777777777777777777777777777777777777777777                                7777777777777777777777777777777777777777777777777777777777777777                                7777777777777777777777777777777777777777777777777777777777777777                                7777777777777777777777777777777777777777777777777777777777777777                                                                                                     ",
"                                                                                                     7777777777777777777777777777777777777777777777777777777777777777                                7777777777777777777777777777777777777777777777777777777777777777                                7777777777777777777777777777777777777777777777777777777777777777                                7777777777777777777777777777777777777777777777777777777777777777                                7777777777777777777777777777777777777777777777777777777777777777                                                                                                     ",
"                                                                                                     7777777777777777777777777777777777777777777777777777777777777777                                7777777777777777777777777777777777777777777777777777777777777777                                7777777777777777777777777777777777777777777777777777777777777777                                7777777777777777777777777777777777777777777777777777777777777777                                7777777777777777777777777777777777777777777777777777777777777777                                                                                                     ",
"                                                                                                     7777777777777777777777777777777777777777777777777777777777777777                                7777777777777777777777777777777777777777777777777777777777777777                                7777777777777777777777777777777777777777777777777777777777777777                                7777777777777777777777777777777777777777777777777777777777777777                                7777777777777777777777777777777777777777777777777777777777777777                                                                                                     ",
"                                                                                                     7777777777777777777777777777777777777777777777777777777777777777                                7777777777777777777777777777777777777777777777777777777777777777                                7777777777777777777777777777777777777777777777777777777777777777                                7777777777777777777777777777777777777777777777777777777777777777                                7777777777777777777777777777777777777777777777777777777777777777                                                                                                     ",
"                                                                                                     7777777777777777777777777777777777777777777777777777777777777777                                7777777777777777777777777777777777777777777777777777777777777777                                7777777777777777777777777777777777777777777777777777777777777777                                7777777777777777777777777777777777777777777777777777777777777777                                7777777777777777777777777777777777777777777777777777777777777777                                                                                                     ",
"                                                                                                     7777777777777777777777777777777777777777777777777777777777777777                                7777777777777777777777777777777777777777777777777777777777777777                                7777777777777777777777777777777777777777777777777777777777777777                                7777777777777777777777777777777777777777777777777777777777777777                                7777777777777777777777777777777777777777777777777777777777777777                                                                                                     ",
"                                                                                                     7777777777777777777777777777777777777777777777777777777777777777                                7777777777777777777777777777777777777777777777777777777777777777                                7777777777777777777777777777777777777777777777777777777777777777                                7777777777777777777777777777777777777777777777777777777777777777                                7777777777777777777777777777777777777777777777777777777777777777                                                                                                     ",
"                                                                                                     7777777777777777777777777777777777777777777777777777777777777777                                7777777777777777777777777777777777777777777777777777777777777777                                7777777777777777777777777777777777777777777777777777777777777777                                7777777777777777777777777777777777777777777777777777777777777777                                7777777777777777777777777777777777777777777777777777777777777777                                                                                                     ",
"                                                                                                     7777777777777777777777777777777777777777777777777777777777777777                                7777777777777777777777777777777777777777777777777777777777777777                                7777777777777777777777777777777777777777777777777777777777777777                                7777777777777777777777777777777777777777777777777777777777777777                                7777777777777777777777777777777777777777777777777777777777777777                                                                                                     ",
"                                                                                                     7777777777777777777777777777777777777777777777777777777777777777                                7777777777777777777777777777777777777777777777777777777777777777                                7777777777777777777777777777777777777777777777777777777777777777                                7777777777777777777777777777777777777777777777777777777777777777                                7777777777777777777777777777777777777777777777777777777777777777                                                                                                     ",
"                                                                                                     7777777777777777777777777777777777777777777777777777777777777777                                7777777777777777777777777777777777777777777777777777777777777777                                7777777777777777777777777777777777777777777777777777777777777777                                7777777777777777777777777777777777777777777777777777777777777777                                7777777777777777777777777777777777777777777777777777777777777777                                                                                                     ",
"                                                                                                     7777777777777777777777777777777777777777777777777777777777777777                                7777777777777777777777777777777777777777777777777777777777777777                                7777777777777777777777777777777777777777777777777777777777777777                                7777777777777777777777777777777777777777777777777777777777777777                                7777777777777777777777777777777777777777777777777777777777777777                                                                                                     ",
"                                                                                                     7777777777777777777777777777777777777777777777777777777777777777                                7777777777777777777777777777777777777777777777777777777777777777                                7777777777777777777777777777777777777777777777777777777777777777                                7777777777777777777777777777777777777777777777777777777777777777                                7777777777777777777777777777777777777777777777777777777777777777                                                                                                     ",
"                                                                                                     7777777777777777777777777777777777777777777777777777777777777777                                7777777777777777777777777777777777777777777777777777777777777777                                7777777777777777777777777777777777777777777777777777777777777777                                7777777777777777777777777777777777777777777777777777777777777777                                7777777777777777777777777777777777777777777777777777777777777777                                                                                                     ",
"                                                                                                     7777777777777777777777777777777777777777777777777777777777777777                                7777777777777777777777777777777777777777777777777777777777777777                                7777777777777777777777777777777777777777777777777777777777777777                                7777777777777777777777777777777777777777777777777777777777777777                                7777777777777777777777777777777777777777777777777777777777777777                                                                                                     ",
"                                                                                                     7777777777777777777777777777777777777777777777777777777777777777                                7777777777777777777777777777777777777777777777777777777777777777                                7777777777777777777777777777777777777777777777777777777777777777                                7777777777777777777777777777777777777777777777777777777777777777                                7777777777777777777777777777777777777777777777777777777777777777                                                                                                     ",
"                                                                                                     7777777777777777777777777777777777777777777777777777777777777777                                7777777777777777777777777777777777777777777777777777777777777777                                7777777777777777777777777777777777777777777777777777777777777777                                7777777777777777777777777777777777777777777777777777777777777777                                7777777777777777777777777777777777777777777777777777777777777777                                                                                                     ",
"                                                                                                     7777777777777777777777777777777777777777777777777777777777777777                                7777777777777777777777777777777777777777777777777777777777777777                                7777777777777777777777777777777777777777777777777777777777777777                                7777777777777777777777777777777777777777777777777777777777777777                                7777777777777777777777777777777777777777777777777777777777777777                                                                                                     ",
"                                                                                                     7777777777777777777777777777777777777777777777777777777777777777                                7777777777777777777777777777777777777777777777777777777777777777                                7777777777777777777777777777777777777777777777777777777777777777                                7777777777777777777777777777777777777777777777777777777777777777                                7777777777777777777777777777777777777777777777777777777777777777                                                                                                     ",
"                                                                                                     7777777777777777777777777777777777777777777777777777777777777777                                7777777777777777777777777777777777777777777777777777777777777777                                7777777777777777777777777777777777777777777777777777777777777777                                7777777777777777777777777777777777777777777777777777777777777777                                7777777777777777777777777777777777777777777777777777777777777777                                                                                                     ",
"                                                                                                     7777777777777777777777777777777777777777777777777777777777777777                                7777777777777777777777777777777777777777777777777777777777777777                                7777777777777777777777777777777777777777777777777777777777777777                                7777777777777777777777777777777777777777777777777777777777777777                                7777777777777777777777777777777777777777777777777777777777777777                                                                                                     ",
"                                                                                                     7777777777777777777777777777777777777777777777777777777777777777                                7777777777777777777777777777777777777777777777777777777777777777                                7777777777777777777777777777777777777777777777777777777777777777                                7777777777777777777777777777777777777777777777777777777777777777                                7777777777777777777777777777777777777777777777777777777777777777                                                                                                     ",
"                                                                                                     7777777777777777777777777777777777777777777777777777777777777777                                7777777777777777777777777777777777777777777777777777777777777777                                7777777777777777777777777777777777777777777777777777777777777777                                7777777777777777777777777777777777777777777777777777777777777777                                7777777777777777777777777777777777777777777777777777777777777777                                                                                                     ",
"                                                                                                     7777777777777777777777777777777777777777777777777777777777777777                                7777777777777777777777777777777777777777777777777777777777777777                                7777777777777777777777777777777777777777777777777777777777777777                                7777777777777777777777777777777777777777777777777777777777777777                                7777777777777777777777777777777777777777777777777777777777777777                                                                                                     ",
"                                                                                                     7777777777777777777777777777777777777777777777777777777777777777                                7777777777777777777777777777777777777777777777777777777777777777                                7777777777777777777777777777777777777777777777777777777777777777                                7777777777777777777777777777777777777777777777777777777777777777                                7777777777777777777777777777777777777777777777777777777777777777                                                                                                     ",
"                                                                                                     7777777777777777777777777777777777777777777777777777777777777777                                7777777777777777777777777777777777777777777777777777777777777777                                7777777777777777777777777777777777777777777777777777777777777777                                7777777777777777777777777777777777777777777777777777777777777777                                7777777777777777777777777777777777777777777777777777777777777777                                                                                                     ",
"                                                                                                     7777777777777777777777777777777777777777777777777777777777777777                                7777777777777777777777777777777777777777777777777777777777777777                                7777777777777777777777777777777777777777777777777777777777777777                                7777777777777777777777777777777777777777777777777777777777777777                                7777777777777777777777777777777777777777777777777777777777777777                                                                                                     ",
"                                                                                                     7777777777777777777777777777777777777777777777777777777777777777                                7777777777777777777777777777777777777777777777777777777777777777                                7777777777777777777777777777777777777777777777777777777777777777                                7777777777777777777777777777777777777777777777777777777777777777                                7777777777777777777777777777777777777777777777777777777777777777                                                                                                     ",
"                                                                                                     7777777777777777777777777777777777777777777777777777777777777777                                7777777777777777777777777777777777777777777777777777777777777777                                7777777777777777777777777777777777777777777777777777777777777777                                7777777777777777777777777777777777777777777777777777777777777777                                7777777777777777777777777777777777777777777777777777777777777777                                                                                                     ",
"                                                                                                     7777777777777777777777777777777777777777777777777777777777777777                                7777777777777777777777777777777777777777777777777777777777777777                                7777777777777777777777777777777777777777777777777777777777777777                                7777777777777777777777777777777777777777777777777777777777777777                                7777777777777777777777777777777777777777777777777777777777777777                                                                                                     ",
"                                                                                                     7777777777777777777777777777777777777777777777777777777777777777                                7777777777777777777777777777777777777777777777777777777777777777                                7777777777777777777777777777777777777777777777777777777777777777                                7777777777777777777777777777777777777777777777777777777777777777                                7777777777777777777777777777777777777777777777777777777777777777                                                                                                     ",
"                                                                                                     7777777777777777777777777777777777777777777777777777777777777777                                7777777777777777777777777777777777777777777777777777777777777777                                7777777777777777777777777777777777777777777777777777777777777777                                7777777777777777777777777777777777777777777777777777777777777777                                7777777777777777777777777777777777777777777777777777777777777777                                                                                                     ",
"                                                                                                     7777777777777777777777777777777777777777777777777777777777777777                                7777777777777777777777777777777777777777777777777777777777777777                                7777777777777777777777777777777777777777777777777777777777777777                                7777777777777777777777777777777777777777777777777777777777777777                                7777777777777777777777777777777777777777777777777777777777777777                                                                                                     ",
"                                                                                                     7777777777777777777777777777777777777777777777777777777777777777                                7777777777777777777777777777777777777777777777777777777777777777                                7777777777777777777777777777777777777777777777777777777777777777                                7777777777777777777777777777777777777777777777777777777777777777                                7777777777777777777777777777777777777777777777777777777777777777                                                                                                     ",
"                                                                                                     7777777777777777777777777777777777777777777777777777777777777777                                7777777777777777777777777777777777777777777777777777777777777777                                7777777777777777777777777777777777777777777777777777777777777777                                7777777777777777777777777777777777777777777777777777777777777777                                7777777777777777777777777777777777777777777777777777777777777777                                                                                                     ",
"                                                                                                     7777777777777777777777777777777777777777777777777777777777777777                                7777777777777777777777777777777777777777777777777777777777777777                                7777777777777777777777777777777777777777777777777777777777777777                                7777777777777777777777777777777777777777777777777777777777777777                                7777777777777777777777777777777777777777777777777777777777777777                                                                                                     ",
"                                                                                                     7777777777777777777777777777777777777777777777777777777777777777                                7777777777777777777777777777777777777777777777777777777777777777                                7777777777777777777777777777777777777777777777777777777777777777                                7777777777777777777777777777777777777777777777777777777777777777                                7777777777777777777777777777777777777777777777777777777777777777                                                                                                     ",
"                                                                                                     7777777777777777777777777777777777777777777777777777777777777777                                7777777777777777777777777777777777777777777777777777777777777777                                7777777777777777777777777777777777777777777777777777777777777777                                7777777777777777777777777777777777777777777777777777777777777777                                7777777777777777777777777777777777777777777777777777777777777777                                                                                                     ",
"                                                                                                     7777777777777777777777777777777777777777777777777777777777777777                                7777777777777777777777777777777777777777777777777777777777777777                                7777777777777777777777777777777777777777777777777777777777777777                                7777777777777777777777777777777777777777777777777777777777777777                                7777777777777777777777777777777777777777777777777777777777777777                                                                                                     ",
"                                                                                                     7777777777777777777777777777777777777777777777777777777777777777                                7777777777777777777777777777777777777777777777777777777777777777                                7777777777777777777777777777777777777777777777777777777777777777                                7777777777777777777777777777777777777777777777777777777777777777                                7777777777777777777777777777777777777777777777777777777777777777                                                                                                     ",
"                                                                                                     7777777777777777777777777777777777777777777777777777777777777777                                7777777777777777777777777777777777777777777777777777777777777777                                7777777777777777777777777777777777777777777777777777777777777777                                7777777777777777777777777777777777777777777777777777777777777777                                7777777777777777777777777777777777777777777777777777777777777777                                                                                                     ",
"                                                                                                     7777777777777777777777777777777777777777777777777777777777777777                                7777777777777777777777777777777777777777777777777777777777777777                                7777777777777777777777777777777777777777777777777777777777777777                                7777777777777777777777777777777777777777777777777777777777777777                                7777777777777777777777777777777777777777777777777777777777777777                                                                                                     ",
"                                                                                                     7777777777777777777777777777777777777777777777777777777777777777                                7777777777777777777777777777777777777777777777777777777777777777                                7777777777777777777777777777777777777777777777777777777777777777                                7777777777777777777777777777777777777777777777777777777777777777                                7777777777777777777777777777777777777777777777777777777777777777                                                                                                     ",
"                                                                                                     7777777777777777777777777777777777777777777777777777777777777777                                7777777777777777777777777777777777777777777777777777777777777777                                7777777777777777777777777777777777777777777777777777777777777777                                7777777777777777777777777777777777777777777777777777777777777777                                7777777777777777777777777777777777777777777777777777777777777777                                                                                                     ",
"                                                                                                     7777777777777777777777777777777777777777777777777777777777777777                                7777777777777777777777777777777777777777777777777777777777777777                                7777777777777777777777777777777777777777777777777777777777777777                                7777777777777777777777777777777777777777777777777777777777777777                                7777777777777777777777777777777777777777777777777777777777777777                                                                                                     ",
"                                                                                                     7777777777777777777777777777777777777777777777777777777777777777                                7777777777777777777777777777777777777777777777777777777777777777                                7777777777777777777777777777777777777777777777777777777777777777                                7777777777777777777777777777777777777777777777777777777777777777                                7777777777777777777777777777777777777777777777777777777777777777                                                                                                     ",
"                                                                                                     7777777777777777777777777777777777777777777777777777777777777777                                7777777777777777777777777777777777777777777777777777777777777777                                7777777777777777777777777777777777777777777777777777777777777777                                7777777777777777777777777777777777777777777777777777777777777777                                7777777777777777777777777777777777777777777777777777777777777777                                                                                                     ",
"                                                                                                     7777777777777777777777777777777777777777777777777777777777777777                                7777777777777777777777777777777777777777777777777777777777777777                                7777777777777777777777777777777777777777777777777777777777777777                                7777777777777777777777777777777777777777777777777777777777777777                                7777777777777777777777777777777777777777777777777777777777777777                                                                                                     ",
"                                                                                                     7777777777777777777777777777777777777777777777777777777777777777                                7777777777777777777777777777777777777777777777777777777777777777                                7777777777777777777777777777777777777777777777777777777777777777                                7777777777777777777777777777777777777777777777777777777777777777                                7777777777777777777777777777777777777777777777777777777777777777                                                                                                     ",
"                                                                                                     7777777777777777777777777777777777777777777777777777777777777777                                7777777777777777777777777777777777777777777777777777777777777777                                7777777777777777777777777777777777777777777777777777777777777777                                7777777777777777777777777777777777777777777777777777777777777777                                7777777777777777777777777777777777777777777777777777777777777777                                                                                                     ",
"                                                                                                     7777777777777777777777777777777777777777777777777777777777777777                                7777777777777777777777777777777777777777777777777777777777777777                                7777777777777777777777777777777777777777777777777777777777777777                                7777777777777777777777777777777777777777777777777777777777777777                                7777777777777777777777777777777777777777777777777777777777777777                                                                                                     ",
"                                                                                                     7777777777777777777777777777777777777777777777777777777777777777                                7777777777777777777777777777777777777777777777777777777777777777                                7777777777777777777777777777777777777777777777777777777777777777                                7777777777777777777777777777777777777777777777777777777777777777                                7777777777777777777777777777777777777777777777777777777777777777                                                                                                     ",
"                                                                                                     7777777777777777777777777777777777777777777777777777777777777777                                7777777777777777777777777777777777777777777777777777777777777777                                7777777777777777777777777777777777777777777777777777777777777777                                7777777777777777777777777777777777777777777777777777777777777777                                7777777777777777777777777777777777777777777777777777777777777777                                                                                                     ",
"                                                                                                     7777777777777777777777777777777777777777777777777777777777777777                                7777777777777777777777777777777777777777777777777777777777777777                                7777777777777777777777777777777777777777777777777777777777777777                                7777777777777777777777777777777777777777777777777777777777777777                                7777777777777777777777777777777777777777777777777777777777777777                                                                                                     ",
"                                                                                                     7777777777777777777777777777777777777777777777777777777777777777                                7777777777777777777777777777777777777777777777777777777777777777                                7777777777777777777777777777777777777777777777777777777777777777                                7777777777777777777777777777777777777777777777777777777777777777                                7777777777777777777777777777777777777777777777777777777777777777                                                                                                     ",
"                                                                                                     7777777777777777777777777777777777777777777777777777777777777777                                7777777777777777777777777777777777777777777777777777777777777777                                7777777777777777777777777777777777777777777777777777777777777777                                7777777777777777777777777777777777777777777777777777777777777777                                7777777777777777777777777777777777777777777777777777777777777777                                                                                                     ",
"                                                                                                     7777777777777777777777777777777777777777777777777777777777777777                                7777777777777777777777777777777777777777777777777777777777777777                                7777777777777777777777777777777777777777777777777777777777777777                                7777777777777777777777777777777777777777777777777777777777777777                                7777777777777777777777777777777777777777777777777777777777777777                                                                                                     ",
"                                                                                                     6777777777777777777777777777777777777777777777777777777777777776                                7777777777777777777777777777777777777777777777777777777777777777                                7777777777777777777777777777777777777777777777777777777777777777                                6777777777777777777777777777777777777777777777777777777777777776                                7777777777777777777777777777777777777777777777777777777777777777                                                                                                     ",
"                                                                                                     4777777777777777777777777777777777777777777777777777777777777774                                7777777777777777777777777777777777777777777777777777777777777777                                7777777777777777777777777777777777777777777777777777777777777777                                4777777777777777777777777777777777777777777777777777777777777774                                7777777777777777777777777777777777777777777777777777777777777777                                                                                                     ",
"                                                                                                     1777777777777777777777777777777777777777777777777777777777777771                                7777777777777777777777777777777777777777777777777777777777777777                                7777777777777777777777777777777777777777777777777777777777777777                                1777777777777777777777777777777777777777777777777777777777777771                                7777777777777777777777777777777777777777777777777777777777777777                                                                                                     ",
"                                                                                                     >77777777777777777777777777777777777777777777777777777777777777>                                7777777777777777777777777777777777777777777777777777777777777777                                7777777777777777777777777777777777777777777777777777777777777777                                >77777777777777777777777777777777777777777777777777777777777777>                                7777777777777777777777777777777777777777777777777777777777777777                                                                                                     ",
"                                                                                                     ;77777777777777777777777777777777777777777777777777777777777777;                                7777777777777777777777777777777777777777777777777777777777777777                                7777777777777777777777777777777777777777777777777777777777777777                                ;77777777777777777777777777777777777777777777777777777777777777;                                7777777777777777777777777777777777777777777777777777777777777777                                                                                                     ",
"                                                                                                     =77777777777777777777777777777777777777777777777777777777777777=                                7777777777777777777777777777777777777777777777777777777777777777                                7777777777777777777777777777777777777777777777777777777777777777                                =77777777777777777777777777777777777777777777777777777777777777=                                7777777777777777777777777777777777777777777777777777777777777777                                                                                                     ",
"                                                                                                     $77777777777777777777777777777777777777777777777777777777777777$                                7777777777777777777777777777777777777777777777777777777777777777                                7777777777777777777777777777777777777777777777777777777777777777                                $77777777777777777777777777777777777777777777777777777777777777$                                7777777777777777777777777777777777777777777777777777777777777777                                                                                                     ",
"                                                                                                     o77777777777777777777777777777777777777777777777777777777777777o                                7777777777777777777777777777777777777777777777777777777777777777                                7777777777777777777777777777777777777777777777777777777777777777                                o77777777777777777777777777777777777777777777777777777777777777o                                7777777777777777777777777777777777777777777777777777777777777777                                                                                                     ",
"                                                                                                      <777777777777777777777777777777777777777777777777777777777777<                                 7777777777777777777777777777777777777777777777777777777777777777                                7777777777777777777777777777777777777777777777777777777777777777                                 <777777777777777777777777777777777777777777777777777777777777<                                 7777777777777777777777777777777777777777777777777777777777777777                                                                                                     ",
"                                                                                                      *777777777777777777777777777777777777777777777777777777777777*                                 7777777777777777777777777777777777777777777777777777777777777777                                7777777777777777777777777777777777777777777777777777777777777777                                 *777777777777777777777777777777777777777777777777777777777777*                                 7777777777777777777777777777777777777777777777777777777777777777                                                                                                     ",
"                                                                                                      O777777777777777777777777777777777777777777777777777777777777O                                 7777777777777777777777777777777777777777777777777777777777777777                                7777777777777777777777777777777777777777777777777777777777777777                                 O777777777777777777777777777777777777777777777777777777777777O                                 7777777777777777777777777777777777777777777777777777777777777777                                                                                                     ",
"                                                                                                       377777777777777777777777777777777777777777777777777777777773                                  7777777777777777777777777777777777777777777777777777777777777777                                7777777777777777777777777777777777777777777777777777777777777777                                  377777777777777777777777777777777777777777777777777777777773                                  7777777777777777777777777777777777777777777777777777777777777777                                                                                                     ",
"                                                                                                       -7777777777777777777777777777777777777777777777777777777777-                                  7777777777777777777777777777777777777777777777777777777777777777                                7777777777777777777777777777777777777777777777777777777777777777                                  -7777777777777777777777777777777777777777777777777777777777-                                  7777777777777777777777777777777777777777777777777777777777777777                                                                                                     ",
"                                                                                                       X5777777777777777777777777777777777777777777777777777777775X                                  7777777777777777777777777777777777777777777777777777777777777777                                7777777777777777777777777777777777777777777777777777777777777777                                  X5777777777777777777777777777777777777777777777777777777775X                                  7777777777777777777777777777777777777777777777777777777777777777                                                                                                     ",
"                                                                                                        &77777777777777777777777777777777777777777777777777777777&                                   7777777777777777777777777777777777777777777777777777777777777777                                7777777777777777777777777777777777777777777777777777777777777777                                   &77777777777777777777777777777777777777777777777777777777&                                   7777777777777777777777777777777777777777777777777777777777777777                                                                                                     ",
"                                                                                                        .47777777777777777777777777777777777777777777777777777774.                                   7777777777777777777777777777777777777777777777777777777777777777                                7777777777777777777777777777777777777777777777777777777777777777                                   .47777777777777777777777777777777777777777777777777777774.                                   7777777777777777777777777777777777777777777777777777777777777777                                                                                                     ",
"                                                                                                         #777777777777777777777777777777777777777777777777777777#                                    7777777777777777777777777777777777777777777777777777777777777777                                7777777777777777777777777777777777777777777777777777777777777777                                    #777777777777777777777777777777777777777777777777777777#                                    7777777777777777777777777777777777777777777777777777777777777777                                                                                                     ",
"                                                                                                          277777777777777777777777777777777777777777777777777772                                     7777777777777777777777777777777777777777777777777777777777777777                                7777777777777777777777777777777777777777777777777777777777777777                                     277777777777777777777777777777777777777777777777777772                                     7777777777777777777777777777777777777777777777777777777777777777                                                                                                     ",
"                                                                                                          +5777777777777777777777777777777777777777777777777775+                                     7777777777777777777777777777777777777777777777777777777777777777                                7777777777777777777777777777777777777777777777777777777777777777                                     +5777777777777777777777777777777777777777777777777775+                                     7777777777777777777777777777777777777777777777777777777777777777                                                                                                     ",
"                                                                                                           @77777777777777777777777777777777777777777777777777@                                      7777777777777777777777777777777777777777777777777777777777777777                                7777777777777777777777777777777777777777777777777777777777777777                                      @77777777777777777777777777777777777777777777777777@                                      7777777777777777777777777777777777777777777777777777777777777777                                                                                                     ",
"                                                                                                            %777777777777777777777777777777777777777777777777%                                       7777777777777777777777777777777777777777777777777777777777777777                                7777777777777777777777777777777777777777777777777777777777777777                                       %777777777777777777777777777777777777777777777777%                                       7777777777777777777777777777777777777777777777777777777777777777                                                                                                     ",
"                                                                                                             :7777777777777777777777777777777777777777777777:                                        7777777777777777777777777777777777777777777777777777777777777777                                7777777777777777777777777777777777777777777777777777777777777777                                        :7777777777777777777777777777777777777777777777:                                        7777777777777777777777777777777777777777777777777777777777777777                                                                                                     ",
"                                                                                                             .,77777777777777777777777777777777777777777777,.                                        7777777777777777777777777777777777777777777777777777777777777777                                7777777777777777777777777777777777777777777777777777777777777777                                        .,77777777777777777777777777777777777777777777,.                                        7777777777777777777777777777777777777777777777777777777777777777                                                                                                     ",
"                                                                                                              .:777777777777777777777777777777777777777777:.                                         7777777777777777777777777777777777777777777777777777777777777777                                7777777777777777777777777777777777777777777777777777777777777777                                         .:777777777777777777777777777777777777777777:.                                         7777777777777777777777777777777777777777777777777777777777777777                                                                                                     ",
"                                                                                                                %7777777777777777777777777777777777777777%                                           7777777777777777777777777777777777777777777777777777777777777777                                7777777777777777777777777777777777777777777777777777777777777777                                           %7777777777777777777777777777777777777777%                                           7777777777777777777777777777777777777777777777777777777777777777                                                                                                     ",
"                                                                                                                 @57777777777777777777777777777777777775@                                            7777777777777777777777777777777777777777777777777777777777777777                                7777777777777777777777777777777777777777777777777777777777777777                                            @57777777777777777777777777777777777775@                                            7777777777777777777777777777777777777777777777777777777777777777                                                                                                     ",
"                                                                                                                  +277777777777777777777777777777777772+                                             7777777777777777777777777777777777777777777777777777777777777777                                7777777777777777777777777777777777777777777777777777777777777777                                             +277777777777777777777777777777777772+                                             7777777777777777777777777777777777777777777777777777777777777777                                                                                                     ",
"                                                                                                                    #47777777777777777777777777777774#                                               7777777777777777777777777777777777777777777777777777777777777777                                7777777777777777777777777777777777777777777777777777777777777777                                               #47777777777777777777777777777774#                                               7777777777777777777777777777777777777777777777777777777777777777                                                                                                     ",
"                                                                                                                     .&5777777777777777777777777775&.                                                7777777777777777777777777777777777777777777777777777777777777777                                7777777777777777777777777777777777777777777777777777777777777777                                                .&5777777777777777777777777775&.                                                7777777777777777777777777777777777777777777777777777777777777777                                                                                                     ",
"                                                                                                                       X-377777777777777777777773-X                                                  7777777777777777777777777777777777777777777777777777777777777777                                7777777777777777777777777777777777777777777777777777777777777777                                                  X-377777777777777777777773-X                                                  7777777777777777777777777777777777777777777777777777777777777777                                                                                                     ",
"                                                                                                                          O*<7777777777777777<*O                                                     7777777777777777777777777777777777777777777777777777777777777777                                7777777777777777777777777777777777777777777777777777777777777777                                                     O*<7777777777777777<*O                                                     7777777777777777777777777777777777777777777777777777777777777777                                                                                                     ",
"                                                                                                                             o$=;>146641>;=$o                                                        7777777777777777777777777777777777777777777777777777777777777777                                7777777777777777777777777777777777777777777777777777777777777777                                                        o$=;>146641>;=$o                                                        7777777777777777777777777777777777777777777777777777777777777777                                                                                                     ",
"                                                                                                                                                                                                     7777777777777777777777777777777777777777777777777777777777777777                                7777777777777777777777777777777777777777777777777777777777777777                                                                                                                                7777777777777777777777777777777777777777777777777777777777777777                                                                                                     ",
"                                                                                                                                                                                                     7777777777777777777777777777777777777777777777777777777777777777                                7777777777777777777777777777777777777777777777777777777777777777                                                                                                                                7777777777777777777777777777777777777777777777777777777777777777                                                                                                     ",
"                                                                                                                                                                                                     7777777777777777777777777777777777777777777777777777777777777777                                7777777777777777777777777777777777777777777777777777777777777777                                                                                                                                7777777777777777777777777777777777777777777777777777777777777777                                                                                                     ",
"                                                                                                                                                                                                     7777777777777777777777777777777777777777777777777777777777777777                                7777777777777777777777777777777777777777777777777777777777777777                                                                                                                                7777777777777777777777777777777777777777777777777777777777777777                                                                                                     ",
"                                                                                                                                                                                                     7777777777777777777777777777777777777777777777777777777777777777                                7777777777777777777777777777777777777777777777777777777777777777                                                                                                                                7777777777777777777777777777777777777777777777777777777777777777                                                                                                     ",
"                                                                                                                                                                                                     7777777777777777777777777777777777777777777777777777777777777777                                7777777777777777777777777777777777777777777777777777777777777777                                                                                                                                7777777777777777777777777777777777777777777777777777777777777777                                                                                                     ",
"                                                                                                                                                                                                     7777777777777777777777777777777777777777777777777777777777777777                                7777777777777777777777777777777777777777777777777777777777777777                                                                                                                                7777777777777777777777777777777777777777777777777777777777777777                                                                                                     ",
"                                                                                                                                                                                                     7777777777777777777777777777777777777777777777777777777777777777                                7777777777777777777777777777777777777777777777777777777777777777                                                                                                                                7777777777777777777777777777777777777777777777777777777777777777                                                                                                     ",
"                                                                                                                                                                                                     7777777777777777777777777777777777777777777777777777777777777777                                7777777777777777777777777777777777777777777777777777777777777777                                                                                                                                7777777777777777777777777777777777777777777777777777777777777777                                                                                                     ",
"                                                                                                                                                                                                     7777777777777777777777777777777777777777777777777777777777777777                                7777777777777777777777777777777777777777777777777777777777777777                                                                                                                                7777777777777777777777777777777777777777777777777777777777777777                                                                                                     ",
"                                                                                                                                                                                                     7777777777777777777777777777777777777777777777777777777777777777                                7777777777777777777777777777777777777777777777777777777777777777                                                                                                                                7777777777777777777777777777777777777777777777777777777777777777                                                                                                     ",
"                                                                                                                                                                                                     7777777777777777777777777777777777777777777777777777777777777777                                7777777777777777777777777777777777777777777777777777777777777777                                                                                                                                7777777777777777777777777777777777777777777777777777777777777777                                                                                                     ",
"                                                                                                                                                                                                     7777777777777777777777777777777777777777777777777777777777777777                                7777777777777777777777777777777777777777777777777777777777777777                                                                                                                                7777777777777777777777777777777777777777777777777777777777777777                                                                                                     ",
"                                                                                                                                                                                                     7777777777777777777777777777777777777777777777777777777777777777                                7777777777777777777777777777777777777777777777777777777777777777                                                                                                                                7777777777777777777777777777777777777777777777777777777777777777                                                                                                     ",
"                                                                                                                                                                                                     7777777777777777777777777777777777777777777777777777777777777777                                7777777777777777777777777777777777777777777777777777777777777777                                                                                                                                7777777777777777777777777777777777777777777777777777777777777777                                                                                                     ",
"                                                                                                                                                                                                     7777777777777777777777777777777777777777777777777777777777777777                                7777777777777777777777777777777777777777777777777777777777777777                                                                                                                                7777777777777777777777777777777777777777777777777777777777777777                                                                                                     ",
"                                                                                                                                                                                                     7777777777777777777777777777777777777777777777777777777777777777                                7777777777777777777777777777777777777777777777777777777777777777                                                                                                                                7777777777777777777777777777777777777777777777777777777777777777                                                                                                     ",
"                                                                                                                                                                                                     7777777777777777777777777777777777777777777777777777777777777777                                7777777777777777777777777777777777777777777777777777777777777777                                                                                                                                7777777777777777777777777777777777777777777777777777777777777777                                                                                                     ",
"                                                                                                                                                                                                     7777777777777777777777777777777777777777777777777777777777777777                                7777777777777777777777777777777777777777777777777777777777777777                                                                                                                                7777777777777777777777777777777777777777777777777777777777777777                                                                                                     ",
"                                                                                                                                                                                                     7777777777777777777777777777777777777777777777777777777777777777                                7777777777777777777777777777777777777777777777777777777777777777                                                                                                                                7777777777777777777777777777777777777777777777777777777777777777                                                                                                     ",
"                                                                                                                                                                                                     7777777777777777777777777777777777777777777777777777777777777777                                7777777777777777777777777777777777777777777777777777777777777777                                                                                                                                7777777777777777777777777777777777777777777777777777777777777777                                                                                                     ",
"                                                                                                                                                                                                     7777777777777777777777777777777777777777777777777777777777777777                                7777777777777777777777777777777777777777777777777777777777777777                                                                                                                                7777777777777777777777777777777777777777777777777777777777777777                                                                                                     ",
"                                                                                                                                                                                                     7777777777777777777777777777777777777777777777777777777777777777                                7777777777777777777777777777777777777777777777777777777777777777                                                                                                                                7777777777777777777777777777777777777777777777777777777777777777                                                                                                     ",
"                                                                                                                                                                                                     7777777777777777777777777777777777777777777777777777777777777777                                7777777777777777777777777777777777777777777777777777777777777777                                                                                                                                7777777777777777777777777777777777777777777777777777777777777777                                                                                                     ",
"                                                                                                                                                                                                     7777777777777777777777777777777777777777777777777777777777777777                                7777777777777777777777777777777777777777777777777777777777777777                                                                                                                                7777777777777777777777777777777777777777777777777777777777777777                                                                                                     ",
"                                                                                                                                                                                                     7777777777777777777777777777777777777777777777777777777777777777                                7777777777777777777777777777777777777777777777777777777777777777                                                                                                                                7777777777777777777777777777777777777777777777777777777777777777                                                                                                     ",
"                                                                                                                                                                                                     7777777777777777777777777777777777777777777777777777777777777777                                7777777777777777777777777777777777777777777777777777777777777777                                                                                                                                7777777777777777777777777777777777777777777777777777777777777777                                                                                                     ",
"                                                                                                                                                                                                     7777777777777777777777777777777777777777777777777777777777777777                                7777777777777777777777777777777777777777777777777777777777777777                                                                                                                                7777777777777777777777777777777777777777777777777777777777777777                                                                                                     ",
"                                                                                                                                                                                                     7777777777777777777777777777777777777777777777777777777777777777                                7777777777777777777777777777777777777777777777777777777777777777                                                                                                                                7777777777777777777777777777777777777777777777777777777777777777                                                                                                     ",
"                                                                                                                                                                                                     7777777777777777777777777777777777777777777777777777777777777777                                7777777777777777777777777777777777777777777777777777777777777777                                                                                                                                7777777777777777777777777777777777777777777777777777777777777777                                                                                                     ",
"                                                                                                                                                                                                     7777777777777777777777777777777777777777777777777777777777777777                                7777777777777777777777777777777777777777777777777777777777777777                                                                                                                                7777777777777777777777777777777777777777777777777777777777777777                                                                                                     ",
"                                                                                                                                                                                                     7777777777777777777777777777777777777777777777777777777777777777                                7777777777777777777777777777777777777777777777777777777777777777                                                                                                                                7777777777777777777777777777777777777777777777777777777777777777                                                                                                     ",
"                                                                                                                                                                                                     7777777777777777777777777777777777777777777777777777777777777777                                7777777777777777777777777777777777777777777777777777777777777777                                                                                                                                6777777777777777777777777777777777777777777777777777777777777776                                                                                                     ",
"                                                                                                                                                                                                     7777777777777777777777777777777777777777777777777777777777777777                                7777777777777777777777777777777777777777777777777777777777777777                                                                                                                                4777777777777777777777777777777777777777777777777777777777777774                                                                                                     ",
"                                                                                                                                                                                                     7777777777777777777777777777777777777777777777777777777777777777                                7777777777777777777777777777777777777777777777777777777777777777                                                                                                                                1777777777777777777777777777777777777777777777777777777777777771                                                                                                     ",
"                                                                                                                                                                                                     7777777777777777777777777777777777777777777777777777777777777777                                7777777777777777777777777777777777777777777777777777777777777777                                                                                                                                >77777777777777777777777777777777777777777777777777777777777777>                                                                                                     ",
"                                                                                                                                                                                                     7777777777777777777777777777777777777777777777777777777777777777                                7777777777777777777777777777777777777777777777777777777777777777                                                                                                                                ;77777777777777777777777777777777777777777777777777777777777777;                                                                                                     ",
"                                                                                                                                                                                                     7777777777777777777777777777777777777777777777777777777777777777                                7777777777777777777777777777777777777777777777777777777777777777                                                                                                                                =77777777777777777777777777777777777777777777777777777777777777=                                                                                                     ",
"                                                                                                                                                                                                     7777777777777777777777777777777777777777777777777777777777777777                                7777777777777777777777777777777777777777777777777777777777777777                                                                                                                                $77777777777777777777777777777777777777777777777777777777777777$                                                                                                     ",
"                                                                                                                                                                                                     7777777777777777777777777777777777777777777777777777777777777777                                7777777777777777777777777777777777777777777777777777777777777777                                                                                                                                o77777777777777777777777777777777777777777777777777777777777777o                                                                                                     ",
"                                                                                                                                                                                                     7777777777777777777777777777777777777777777777777777777777777777                                7777777777777777777777777777777777777777777777777777777777777777                                                                                                                                 <777777777777777777777777777777777777777777777777777777777777<                                                                                                      ",
"                                                                                                                                                                                                     7777777777777777777777777777777777777777777777777777777777777777                                7777777777777777777777777777777777777777777777777777777777777777                                                                                                                                 *777777777777777777777777777777777777777777777777777777777777*                                                                                                      ",
"                                                                                                                                                                                                     7777777777777777777777777777777777777777777777777777777777777777                                7777777777777777777777777777777777777777777777777777777777777777                                                                                                                                 O777777777777777777777777777777777777777777777777777777777777O                                                                                                      ",
"                                                                                                                                                                                                     7777777777777777777777777777777777777777777777777777777777777777                                7777777777777777777777777777777777777777777777777777777777777777                                                                                                                                  377777777777777777777777777777777777777777777777777777777773                                                                                                       ",
"                                                                                                                                                                                                     7777777777777777777777777777777777777777777777777777777777777777                                7777777777777777777777777777777777777777777777777777777777777777                                                                                                                                  -7777777777777777777777777777777777777777777777777777777777-                                                                                                       ",
"                                                                                                                                                                                                     7777777777777777777777777777777777777777777777777777777777777777                                7777777777777777777777777777777777777777777777777777777777777777                                                                                                                                  X5777777777777777777777777777777777777777777777777777777775X                                                                                                       ",
"                                                                                                                                                                                                     7777777777777777777777777777777777777777777777777777777777777777                                7777777777777777777777777777777777777777777777777777777777777777                                                                                                                                   &77777777777777777777777777777777777777777777777777777777&                                                                                                        ",
"                                                                                                                                                                                                     7777777777777777777777777777777777777777777777777777777777777777                                7777777777777777777777777777777777777777777777777777777777777777                                                                                                                                   .47777777777777777777777777777777777777777777777777777774.                                                                                                        ",
"                                                                                                                                                                                                     6777777777777777777777777777777777777777777777777777777777777776                                7777777777777777777777777777777777777777777777777777777777777777                                                                                                                                    #777777777777777777777777777777777777777777777777777777#                                                                                                         ",
"                                                                                                                                                                                                     4777777777777777777777777777777777777777777777777777777777777774                                7777777777777777777777777777777777777777777777777777777777777777                                                                                                                                     277777777777777777777777777777777777777777777777777772                                                                                                          ",
"                                                                                                                                                                                                     1777777777777777777777777777777777777777777777777777777777777771                                7777777777777777777777777777777777777777777777777777777777777777                                                                                                                                     +5777777777777777777777777777777777777777777777777775+                                                                                                          ",
"                                                                                                                                                                                                     >77777777777777777777777777777777777777777777777777777777777777>                                7777777777777777777777777777777777777777777777777777777777777777                                                                                                                                      @77777777777777777777777777777777777777777777777777@                                                                                                           ",
"                                                                                                                                                                                                     ;77777777777777777777777777777777777777777777777777777777777777;                                7777777777777777777777777777777777777777777777777777777777777777                                                                                                                                       %777777777777777777777777777777777777777777777777%                                                                                                            ",
"                                                                                                                                                                                                     =77777777777777777777777777777777777777777777777777777777777777=                                7777777777777777777777777777777777777777777777777777777777777777                                                                                                                                        :7777777777777777777777777777777777777777777777:                                                                                                             ",
"                                                                                                                                                                                                     $77777777777777777777777777777777777777777777777777777777777777$                                7777777777777777777777777777777777777777777777777777777777777777                                                                                                                                        .,77777777777777777777777777777777777777777777,.                                                                                                             ",
"                                                                                                                                                                                                     o77777777777777777777777777777777777777777777777777777777777777o                                7777777777777777777777777777777777777777777777777777777777777777                                                                                                                                         .:777777777777777777777777777777777777777777:.                                                                                                              ",
"                                                                                                                                                                                                      <777777777777777777777777777777777777777777777777777777777777<                                 7777777777777777777777777777777777777777777777777777777777777777                                                                                                                                           %7777777777777777777777777777777777777777%                                                                                                                ",
"                                                                                                                                                                                                      *777777777777777777777777777777777777777777777777777777777777*                                 7777777777777777777777777777777777777777777777777777777777777777                                                                                                                                            @57777777777777777777777777777777777775@                                                                                                                 ",
"                                                                                                                                                                                                      O777777777777777777777777777777777777777777777777777777777777O                                 7777777777777777777777777777777777777777777777777777777777777777                                                                                                                                             +277777777777777777777777777777777772+                                                                                                                  ",
"                                                                                                                                                                                                       377777777777777777777777777777777777777777777777777777777773                                  7777777777777777777777777777777777777777777777777777777777777777                                                                                                                                               #47777777777777777777777777777774#                                                                                                                    ",
"                                                                                                                                                                                                       -7777777777777777777777777777777777777777777777777777777777-                                  7777777777777777777777777777777777777777777777777777777777777777                                                                                                                                                .&5777777777777777777777777775&.                                                                                                                     ",
"                                                                                                                                                                                                       X5777777777777777777777777777777777777777777777777777777775X                                  7777777777777777777777777777777777777777777777777777777777777777                                                                                                                                                  X-377777777777777777777773-X                                                                                                                       ",
"                                                                                                                                                                                                        &77777777777777777777777777777777777777777777777777777777&                                   7777777777777777777777777777777777777777777777777777777777777777                                                                                                                                                     O*<7777777777777777<*O                                                                                                                          ",
"                                                                                                                                                                                                        .47777777777777777777777777777777777777777777777777777774.                                   7777777777777777777777777777777777777777777777777777777777777777                                                                                                                                                        o$=;>146641>;=$o                                                                                                                             ",
"                                                                                                                                                                                                         #777777777777777777777777777777777777777777777777777777#                                    7777777777777777777777777777777777777777777777777777777777777777                                                                                                                                                                                                                                                                                                     ",
"                                                                                                                                                                                                          277777777777777777777777777777777777777777777777777772                                     7777777777777777777777777777777777777777777777777777777777777777                                                                                                                                                                                                                                                                                                     ",
"                                                                                                                                                                                                          +5777777777777777777777777777777777777777777777777775+                                     7777777777777777777777777777777777777777777777777777777777777777                                                                                                                                                                                                                                                                                                     ",
"                                                                                                                                                                                                           @77777777777777777777777777777777777777777777777777@                                      7777777777777777777777777777777777777777777777777777777777777777                                                                                                                                                                                                                                                                                                     ",
"                                                                                                                                                                                                            %777777777777777777777777777777777777777777777777%                                       7777777777777777777777777777777777777777777777777777777777777777                                                                                                                                                                                                                                                                                                     ",
"                                                                                                                                                                                                             :7777777777777777777777777777777777777777777777:                                        7777777777777777777777777777777777777777777777777777777777777777                                                                                                                                                                                                                                                                                                     ",
"                                                                                                                                                                                                             .,77777777777777777777777777777777777777777777,.                                        7777777777777777777777777777777777777777777777777777777777777777                                                                                                                                                                                                                                                                                                     ",
"                                                                                                                                                                                                              .:777777777777777777777777777777777777777777:.                                         7777777777777777777777777777777777777777777777777777777777777777                                                                                                                                                                                                                                                                                                     ",
"                                                                                                                                                                                                                %7777777777777777777777777777777777777777%                                           7777777777777777777777777777777777777777777777777777777777777777                                                                                                                                                                                                                                                                                                     ",
"                                                                                                                                                                                                                 @57777777777777777777777777777777777775@                                            7777777777777777777777777777777777777777777777777777777777777777                                                                                                                                                                                                                                                                                                     ",
"                                                                                                                                                                                                                  +277777777777777777777777777777777772+                                             7777777777777777777777777777777777777777777777777777777777777777                                                                                                                                                                                                                                                                                                     ",
"                                                                                                                                                                                                                    #47777777777777777777777777777774#                                               7777777777777777777777777777777777777777777777777777777777777777                                                                                                                                                                                                                                                                                                     ",
"                                                                                                                                                                                                                     .&5777777777777777777777777775&.                                                7777777777777777777777777777777777777777777777777777777777777777                                                                                                                                                                                                                                                                                                     ",
"                                                                                                                                                                                                                       X-377777777777777777777773-X                                                  7777777777777777777777777777777777777777777777777777777777777777                                                                                                                                                                                                                                                                                                     ",
"                                                                                                                                                                                                                          O*<7777777777777777<*O                                                     7777777777777777777777777777777777777777777777777777777777777777                                                                                                                                                                                                                                                                                                     ",
"                                                                                                                                                                                                                             o$=;>146641>;=$o                                                        7777777777777777777777777777777777777777777777777777777777777777                                                                                                                                                                                                                                                                                                     ",
"                                                                                                                                                                                                                                                                                                     7777777777777777777777777777777777777777777777777777777777777777                                                                                                                                                                                                                                                                                                     ",
"                                                                                                                                                                                                                                                                                                     7777777777777777777777777777777777777777777777777777777777777777                                                                                                                                                                                                                                                                                                     ",
"                                                                                                                                                                                                                                                                                                     7777777777777777777777777777777777777777777777777777777777777777                                                                                                                                                                                                                                                                                                     ",
"                                                                                                                                                                                                                                                                                                     7777777777777777777777777777777777777777777777777777777777777777                                                                                                                                                                                                                                                                                                     ",
"                                                                                                                                                                                                                                                                                                     7777777777777777777777777777777777777777777777777777777777777777                                                                                                                                                                                                                                                                                                     ",
"                                                                                                                                                                                                                                                                                                     7777777777777777777777777777777777777777777777777777777777777777                                                                                                                                                                                                                                                                                                     ",
"                                                                                                                                                                                                                                                                                                     7777777777777777777777777777777777777777777777777777777777777777                                                                                                                                                                                                                                                                                                     ",
"                                                                                                                                                                                                                                                                                                     7777777777777777777777777777777777777777777777777777777777777777                                                                                                                                                                                                                                                                                                     ",
"                                                                                                                                                                                                                                                                                                     7777777777777777777777777777777777777777777777777777777777777777                                                                                                                                                                                                                                                                                                     ",
"                                                                                                                                                                                                                                                                                                     7777777777777777777777777777777777777777777777777777777777777777                                                                                                                                                                                                                                                                                                     ",
"                                                                                                                                                                                                                                                                                                     7777777777777777777777777777777777777777777777777777777777777777                                                                                                                                                                                                                                                                                                     ",
"                                                                                                                                                                                                                                                                                                     7777777777777777777777777777777777777777777777777777777777777777                                                                                                                                                                                                                                                                                                     ",
"                                                                                                                                                                                                                                                                                                     7777777777777777777777777777777777777777777777777777777777777777                                                                                                                                                                                                                                                                                                     ",
"                                                                                                                                                                                                                                                                                                     7777777777777777777777777777777777777777777777777777777777777777                                                                                                                                                                                                                                                                                                     ",
"                                                                                                                                                                                                                                                                                                     7777777777777777777777777777777777777777777777777777777777777777                                                                                                                                                                                                                                                                                                     ",
"                                                                                                                                                                                                                                                                                                     7777777777777777777777777777777777777777777777777777777777777777                                                                                                                                                                                                                                                                                                     ",
"                                                                                                                                                                                                                                                                                                     7777777777777777777777777777777777777777777777777777777777777777                                                                                                                                                                                                                                                                                                     ",
"                                                                                                                                                                                                                                                                                                     7777777777777777777777777777777777777777777777777777777777777777                                                                                                                                                                                                                                                                                                     ",
"                                                                                                                                                                                                                                                                                                     7777777777777777777777777777777777777777777777777777777777777777                                                                                                                                                                                                                                                                                                     ",
"                                                                                                                                                                                                                                                                                                     7777777777777777777777777777777777777777777777777777777777777777                                                                                                                                                                                                                                                                                                     ",
"                                                                                                                                                                                                                                                                                                     7777777777777777777777777777777777777777777777777777777777777777                                                                                                                                                                                                                                                                                                     ",
"                                                                                                                                                                                                                                                                                                     7777777777777777777777777777777777777777777777777777777777777777                                                                                                                                                                                                                                                                                                     ",
"                                                                                                                                                                                                                                                                                                     7777777777777777777777777777777777777777777777777777777777777777                                                                                                                                                                                                                                                                                                     ",
"                                                                                                                                                                                                                                                                                                     7777777777777777777777777777777777777777777777777777777777777777                                                                                                                                                                                                                                                                                                     ",
"                                                                                                                                                                                                                                                                                                     7777777777777777777777777777777777777777777777777777777777777777                                                                                                                                                                                                                                                                                                     ",
"                                                                                                                                                                                                                                                                                                     7777777777777777777777777777777777777777777777777777777777777777                                                                                                                                                                                                                                                                                                     ",
"                                                                                                                                                                                                                                                                                                     7777777777777777777777777777777777777777777777777777777777777777                                                                                                                                                                                                                                                                                                     ",
"                                                                                                                                                                                                                                                                                                     7777777777777777777777777777777777777777777777777777777777777777                                                                                                                                                                                                                                                                                                     ",
"                                                                                                                                                                                                                                                                                                     7777777777777777777777777777777777777777777777777777777777777777                                                                                                                                                                                                                                                                                                     ",
"                                                                                                                                                                                                                                                                                                     7777777777777777777777777777777777777777777777777777777777777777                                                                                                                                                                                                                                                                                                     ",
"                                                                                                                                                                                                                                                                                                     7777777777777777777777777777777777777777777777777777777777777777                                                                                                                                                                                                                                                                                                     ",
"                                                                                                                                                                                                                                                                                                     7777777777777777777777777777777777777777777777777777777777777777                                                                                                                                                                                                                                                                                                     ",
"                                                                                                                                                                                                                                                                                                     7777777777777777777777777777777777777777777777777777777777777777                                                                                                                                                                                                                                                                                                     ",
"                                                                                                                                                                                                                                                                                                     7777777777777777777777777777777777777777777777777777777777777777                                                                                                                                                                                                                                                                                                     ",
"                                                                                                                                                                                                                                                                                                     7777777777777777777777777777777777777777777777777777777777777777                                                                                                                                                                                                                                                                                                     ",
"                                                                                                                                                                                                                                                                                                     7777777777777777777777777777777777777777777777777777777777777777                                                                                                                                                                                                                                                                                                     ",
"                                                                                                                                                                                                                                                                                                     7777777777777777777777777777777777777777777777777777777777777777                                                                                                                                                                                                                                                                                                     ",
"                                                                                                                                                                                                                                                                                                     7777777777777777777777777777777777777777777777777777777777777777                                                                                                                                                                                                                                                                                                     ",
"                                                                                                                                                                                                                                                                                                     7777777777777777777777777777777777777777777777777777777777777777                                                                                                                                                                                                                                                                                                     ",
"                                                                                                                                                                                                                                                                                                     7777777777777777777777777777777777777777777777777777777777777777                                                                                                                                                                                                                                                                                                     ",
"                                                                                                                                                                                                                                                                                                     7777777777777777777777777777777777777777777777777777777777777777                                                                                                                                                                                                                                                                                                     ",
"                                                                                                                                                                                                                                                                                                     7777777777777777777777777777777777777777777777777777777777777777                                                                                                                                                                                                                                                                                                     ",
"                                                                                                                                                                                                                                                                                                     7777777777777777777777777777777777777777777777777777777777777777                                                                                                                                                                                                                                                                                                     ",
"                                                                                                                                                                                                                                                                                                     7777777777777777777777777777777777777777777777777777777777777777                                                                                                                                                                                                                                                                                                     ",
"                                                                                                                                                                                                                                                                                                     7777777777777777777777777777777777777777777777777777777777777777                                                                                                                                                                                                                                                                                                     ",
"                                                                                                                                                                                                                                                                                                     7777777777777777777777777777777777777777777777777777777777777777                                                                                                                                                                                                                                                                                                     ",
"                                                                                                                                                                                                                                                                                                     7777777777777777777777777777777777777777777777777777777777777777                                                                                                                                                                                                                                                                                                     ",
"                                                                                                                                                                                                                                                                                                     7777777777777777777777777777777777777777777777777777777777777777                                                                                                                                                                                                                                                                                                     ",
"                                                                                                                                                                                                                                                                                                     6777777777777777777777777777777777777777777777777777777777777776                                                                                                                                                                                                                                                                                                     ",
"                                                                                                                                                                                                                                                                                                     4777777777777777777777777777777777777777777777777777777777777774                                                                                                                                                                                                                                                                                                     ",
"                                                                                                                                                                                                                                                                                                     1777777777777777777777777777777777777777777777777777777777777771                                                                                                                                                                                                                                                                                                     ",
"                                                                                                                                                                                                                                                                                                     >77777777777777777777777777777777777777777777777777777777777777>                                                                                                                                                                                                                                                                                                     ",
"                                                                                                                                                                                                                                                                                                     ;77777777777777777777777777777777777777777777777777777777777777;                                                                                                                                                                                                                                                                                                     ",
"                                                                                                                                                                                                                                                                                                     =77777777777777777777777777777777777777777777777777777777777777=                                                                                                                                                                                                                                                                                                     ",
"                                                                                                                                                                                                                                                                                                     $77777777777777777777777777777777777777777777777777777777777777$                                                                                                                                                                                                                                                                                                     ",
"                                                                                                                                                                                                                                                                                                     o77777777777777777777777777777777777777777777777777777777777777o                                                                                                                                                                                                                                                                                                     ",
"                                                                                                                                                                                                                                                                                                      <777777777777777777777777777777777777777777777777777777777777<                                                                                                                                                                                                                                                                                                      ",
"                                                                                                                                                                                                                                                                                                      *777777777777777777777777777777777777777777777777777777777777*                                                                                                                                                                                                                                                                                                      ",
"                                                                                                                                                                                                                                                                                                      O777777777777777777777777777777777777777777777777777777777777O                                                                                                                                                                                                                                                                                                      ",
"                                                                                                                                                                                                                                                                                                       377777777777777777777777777777777777777777777777777777777773                                                                                                                                                                                                                                                                                                       ",
"                                                                                                                                                                                                                                                                                                       -7777777777777777777777777777777777777777777777777777777777-                                                                                                                                                                                                                                                                                                       ",
"                                                                                                                                                                                                                                                                                                       X5777777777777777777777777777777777777777777777777777777775X                                                                                                                                                                                                                                                                                                       ",
"                                                                                                                                                                                                                                                                                                        &77777777777777777777777777777777777777777777777777777777&                                                                                                                                                                                                                                                                                                        ",
"                                                                                                                                                                                                                                                                                                        .47777777777777777777777777777777777777777777777777777774.                                                                                                                                                                                                                                                                                                        ",
"                                                                                                                                                                                                                                                                                                         #777777777777777777777777777777777777777777777777777777#                                                                                                                                                                                                                                                                                                         ",
"                                                                                                                                                                                                                                                                                                          277777777777777777777777777777777777777777777777777772                                                                                                                                                                                                                                                                                                          ",
"                                                                                                                                                                                                                                                                                                          +5777777777777777777777777777777777777777777777777775+                                                                                                                                                                                                                                                                                                          ",
"                                                                                                                                                                                                                                                                                                           @77777777777777777777777777777777777777777777777777@                                                                                                                                                                                                                                                                                                           ",
"                                                                                                                                                                                                                                                                                                            %777777777777777777777777777777777777777777777777%                                                                                                                                                                                                                                                                                                            ",
"                                                                                                                                                                                                                                                                                                             :7777777777777777777777777777777777777777777777:                                                                                                                                                                                                                                                                                                             ",
"                                                                                                                                                                                                                                                                                                             .,77777777777777777777777777777777777777777777,.                                                                                                                                                                                                                                                                                                             ",
"                                                                                                                                                                                                                                                                                                              .:777777777777777777777777777777777777777777:.                                                                                                                                                                                                                                                                                                              ",
"                                                                                                                                                                                                                                                                                                                %7777777777777777777777777777777777777777%                                                                                                                                                                                                                                                                                                                ",
"                                                                                                                                                                                                                                                                                                                 @57777777777777777777777777777777777775@                                                                                                                                                                                                                                                                                                                 ",
"                                                                                                                                                                                                                                                                                                                  +277777777777777777777777777777777772+                                                                                                                                                                                                                                                                                                                  ",
"                                                                                                                                                                                                                                                                                                                    #47777777777777777777777777777774#                                                                                                                                                                                                                                                                                                                    ",
"                                                                                                                                                                                                                                                                                                                     .&5777777777777777777777777775&.                                                                                                                                                                                                                                                                                                                     ",
"                                                                                                                                                                                                                                                                                                                       X-377777777777777777777773-X                                                                                                                                                                                                                                                                                                                       ",
"                                                                                                                                                                                                                                                                                                                          O*<7777777777777777<*O                                                                                                                                                                                                                                                                                                                          ",
"                                                                                                                                                                                                                                                                                                                             o$=;>146641>;=$o                                                                                                                                                                                                                                                                                                                             ",
"                                                                                                                                                                                                                                                                                                                                                                                                                                                                                                                                                                                                                                                                          ",
"                                                                                                                                                                                                                                                                                                                                                                                                                                                                                                                                                                                                                                                                          ",
"                                                                                                                                                                                                                                                                                                                                                                                                                                                                                                                                                                                                                                                                          ",
"                                                                                                                                                                                                                                                                                                                                                                                                                                                                                                                                                                                                                                                                          ",
"                                                                                                                                                                                                                                                                                                                                                                                                                                                                                                                                                                                                                                                                          ",
"                                                                                                                                                                                                                                                                                                                                                                                                                                                                                                                                                                                                                                                                          ",
"                                                                                                                                                                                                                                                                                                                                                                                                                                                                                                                                                                                                                                                                          ",
"                                                                                                                                                                                                                                                                                                                                                                                                                                                                                                                                                                                                                                                                          ",
"                                                                                                                                                                                                                                                                                                                                                                                                                                                                                                                                                                                                                                                                          ",
"                                                                                                                                                                                                                                                                                                                                                                                                                                                                                                                                                                                                                                                                          ",
"                                                                                                                                                                                                                                                                                                                                                                                                                                                                                                                                                                                                                                                                          ",
"                                                                                                                                                                                                                                                                                                                                                                                                                                                                                                                                                                                                                                                                          ",
"                                                                                                                                                                                                                                                                                                                                                                                                                                                                                                                                                                                                                                                                          ",
"                                                                                                                                                                                                                                                                                                                                                                                                                                                                                                                                                                                                                                                                          ",
"                                                                                                                                                                                                                                                                                                                                                                                                                                                                                                                                                                                                                                                                          ",
"                                                                                                                                                                                                                                                                                                                                                                                                                                                                                                                                                                                                                                                                          ",
"                                                                                                                                                                                                                                                                                                                                                                                                                                                                                                                                                                                                                                                                          ",
"                                                                                                                                                                                                                                                                                                                                                                                                                                                                                                                                                                                                                                                                          ",
"                                                                                                                                                                                                                                                                                                                                                                                                                                                                                                                                                                                                                                                                          ",
"                                                                                                                                                                                                                                                                                                                                                                                                                                                                                                                                                                                                                                                                          ",
"                                                                                                                                                                                                                                                                                                                                                                                                                                                                                                                                                                                                                                                                          ",
"                                                                                                                                                                                                                                                                                                                                                                                                                                                                                                                                                                                                                                                                          ",
"                                                                                                                                                                                                                                                                                                                                                                                                                                                                                                                                                                                                                                                                          ",
"                                                                                                                                                                                                                                                                                                                                                                                                                                                                                                                                                                                                                                                                          ",
"                                                                                                                                                                                                                                                                                                                                                                                                                                                                                                                                                                                                                                                                          ",
"                                                                                                                                                                                                                                                                                                                                                                                                                                                                                                                                                                                                                                                                          ",
"                                                                                                                                                                                                                                                                                                                                                                                                                                                                                                                                                                                                                                                                          ",
"                                                                                                                                                                                                                                                                                                                                                                                                                                                                                                                                                                                                                                                                          ",
"                                                                                                                                                                                                                                                                                                                                                                                                                                                                                                                                                                                                                                                                          ",
"                                                                                                                                                                                                                                                                                                                                                                                                                                                                                                                                                                                                                                                                          ",
"                                                                                                                                                                                                                                                                                                                                                                                                                                                                                                                                                                                                                                                                          ",
"                                                                                                                                                                                                                                                                                                                                                                                                                                                                                                                                                                                                                                                                          ",
"                                                                                                                                                                                                                                                                                                                                                                                                                                                                                                                                                                                                                                                                          ",
"                                                                                                                                                                                                                                                                                                                                                                                                                                                                                                                                                                                                                                                                          ",
"                                                                                                                                                                                                                                                                                                                                                                                                                                                                                                                                                                                                                                                                          ",
"                                                                                                                                                                                                                                                                                                                                                                                                                                                                                                                                                                                                                                                                          ",
"                                                                                                                                                                                                                                                                                                                                                                                                                                                                                                                                                                                                                                                                          ",
"                                                                                                                                                                                                                                                                                                                                                                                                                                                                                                                                                                                                                                                                          ",
"                                                                                                                                                                                                                                                                                                                                                                                                                                                                                                                                                                                                                                                                          ",
"                                                                                                                                                                                                                                                                                                                                                                                                                                                                                                                                                                                                                                                                          ",
"                                                                                                                                                                                                                                                                                                                                                                                                                                                                                                                                                                                                                                                                          ",
"                                                                                                                                                                                                                                                                                                                                                                                                                                                                                                                                                                                                                                                                          ",
"                                                                                                                                                                                                                                                                                                                                                                                                                                                                                                                                                                                                                                                                          ",
"                                                                                                                                                                                                                                                                                                                                                                                                                                                                                                                                                                                                                                                                          ",
"                                                                                                                                                                                                                                                                                                                                                                                                                                                                                                                                                                                                                                                                          ",
"                                                                                                                                                                                                                                                                                                                                                                                                                                                                                                                                                                                                                                                                          ",
"                                                                                                                                                                                                                                                                                                                                                                                                                                                                                                                                                                                                                                                                          ",
"                                                                                                                                                                                                                                                                                                                                                                                                                                                                                                                                                                                                                                                                          ",
"                                                                                                                                                                                                                                                                                                                                                                                                                                                                                                                                                                                                                                                                          ",
"                                                                                                                                                                                                                                                                                                                                                                                                                                                                                                                                                                                                                                                                          ",
"                                                                                                                                                                                                                                                                                                                                                                                                                                                                                                                                                                                                                                                                          ",
"                                                                                                                                                                                                                                                                                                                                                                                                                                                                                                                                                                                                                                                                          ",
"                                                                                                                                                                                                                                                                                                                                                                                                                                                                                                                                                                                                                                                                          ",
"                                                                                                                                                                                                                                                                                                                                                                                                                                                                                                                                                                                                                                                                          ",
"                                                                                                                                                                                                                                                                                                                                                                                                                                                                                                                                                                                                                                                                          ",
"                                                                                                                                                                                                                                                                                                                                                                                                                                                                                                                                                                                                                                                                          ",
"                                                                                                                                                                                                                                                                                                                                                                                                                                                                                                                                                                                                                                                                          ",
"                                                                                                                                                                                                                                                                                                                                                                                                                                                                                                                                                                                                                                                                          ",
"                                                                                                                                                                                                                                                                                                                                                                                                                                                                                                                                                                                                                                                                          ",
"                                                                                                                                                                                                                                                                                                                                                                                                                                                                                                                                                                                                                                                                          ",
"                                                                                                                                                                                                                                                                                                                                                                                                                                                                                                                                                                                                                                                                          ",
"                                                                                                                                                                                                                                                                                                                                                                                                                                                                                                                                                                                                                                                                          ",
"                                                                                                                                                                                                                                                                                                                                                                                                                                                                                                                                                                                                                                                                          ",
"                                                                                                                                                                                                                                                                                                                                                                                                                                                                                                                                                                                                                                                                          ",
"                                                                                                                                                                                                                                                                                                                                                                                                                                                                                                                                                                                                                                                                          ",
"                                                                                                                                                                                                                                                                                                                                                                                                                                                                                                                                                                                                                                                                          ",
"                                                                                                                                                                                                                                                                                                                                                                                                                                                                                                                                                                                                                                                                          ",
"                                                                                                                                                                                                                                                                                                                                                                                                                                                                                                                                                                                                                                                                          ",
"                                                                                                                                                                                                                                                                                                                                                                                                                                                                                                                                                                                                                                                                          "
};
